!!!!SEGMENT: pl-cz--ii-21--001_volckmer-augustin--quid-divin-amor-possit.krn
!!!cenid: 17xx:1213
!!!COM: Volckmer, Augustin
!!!COM-rismID: pe30020656
!!!CDT: 1755-~1820
!!!CNT:
!!!OPR: Quid divinus amor possit
!!!OTL: Quid divinus amor possit
!!!OMV: 001
!!!PDT:
!!!AGN:
!!!SMS-siglum: PL-CZ
!!!SMS-shelfmark: II-21
!!!SMS-shelfwork: 001-001 M
!!!SMS-variant:
!!!SMS-altvar:
!!!NIFC-rismSourceID: 300001400
!!!NIFC-rismChildID: 300001400
!!!NIFC-islandoraID: pl-cz:32887
!!!URL-pdf-islandora: https://repozytorium.nifc.pl/islandora/object/pl-cz%3A32887/datastream/PDF/view
!!!URL-scan: https://polish.musicsources.pl/pl/lokalizacje/galeria/rekopisy/6779/1 @EN{Scan on Polish Music Sources Website} @PL{Skany w portalu Dziedzictwo Muzyki Polskiej w otwartym dostępie}
!!!ONB-nifc: UWAGA: części: 1. Quid divinus amor possit, 2. O supreme rex, 3. Quid divinus amor possit
!!!AIN: 1 cbass 2 cor 1 fagot 2 oboe 2 soprn 1 viola 2 violn
!!!key: E-
**kern	**dynam	**kern	**dynam	**kern	**dynam	**kern	**dynam	**kern	**text	**dynam	**kern	**text	**dynam	**kern	**dynam	**kern	**dynam	**kern	**dynam	**kern	**dynam	**kern	**dynam
*group4	*	*group4	*	*group4	*	*group4	*	*group3	*	*	*group3	*	*	*group2	*	*group2	*	*group1	*	*group1	*	*group1	*
*part11	*part11	*part10	*part10	*part9	*part9	*part8	*part8	*part7	*part7	*part7	*part6	*part6	*part6	*part5	*part5	*part4	*part4	*part3	*part3	*part2	*part2	*part1	*part1
*staff11	*	*staff10	*	*staff9	*	*staff8	*	*staff7	*staff7	*	*staff6	*staff6	*	*staff5	*	*staff4	*	*staff3	*	*staff2	*	*staff1	*
*IGacmp	*	*IGacmp	*	*IGacmp	*	*IGacmp	*	*IGsolo	*	*	*IGsolo	*	*	*IGacmp	*	*IGacmp	*	*IGacmp	*	*IGacmp	*	*IGacmp	*
*ICstr	*	*ICstr	*	*ICstr	*	*ICstr	*	*ICvox	*	*	*ICvox	*	*	*ICbras	*	*ICbras	*	*ICww	*	*ICww	*	*ICww	*
*Icbass	*	*Iviola	*	*Ivioln	*	*Ivioln	*	*Isoprn	*	*	*Isoprn	*	*	*Icor	*	*Icor	*	*Ifagot	*	*Ioboe	*	*Ioboe	*
*I"Baſſo.	*	*I"Viola obgl.	*	*I"Violino Secundo.	*	*I"Violino Primo.	*	*I"Canto. II.te	*	*	*I"Canto. I.te	*	*	*I"Corno Secunda. in Dis	*	*I"Corno Prima in Dis	*	*I"Fagotto. obl.	*	*I"Hautbois Secunda.	*	*I"Hautbois Prima.	*
*I'b	*	*I'vla	*	*I'vl 2	*	*I'vl 1	*	*I'S 2	*	*	*I'S 1	*	*	*I'cor 2	*	*I'cor 1	*	*I'fag	*	*I'ob 2	*	*I'ob 1	*
*clefF4	*	*clefC3	*	*clefG2	*	*clefG2	*	*clefC1	*	*	*clefC1	*	*	*clefG2	*	*clefG2	*	*clefF4	*	*clefG2	*	*clefG2	*
*	*	*	*	*	*	*	*	*	*	*	*	*	*	*ITrd-2c-3	*	*ITrd-2c-3	*	*	*	*	*	*	*
*k[e-b-a-3]	*	*k[b-a-3e-]	*	*k[b-e-a-]	*	*k[b-e-a-]	*	*k[a-e-3b-]	*	*	*k[a-e-3b-]	*	*	*k[b-e-a-]	*	*k[b-e-a-]	*	*k[e-a-3b-]	*	*k[b-e-a-]	*	*k[b-e-a-]	*
*E-:	*	*E-:	*	*E-:	*	*E-:	*	*E-:	*	*	*E-:	*	*	*	*	*	*	*E-:	*	*E-:	*	*E-:	*
*M3/4	*	*M3/4	*	*M3/4	*	*M3/4	*	*M3/4	*	*	*M3/4	*	*	*M3/4	*	*M3/4	*	*M3/4	*	*M3/4	*	*M3/4	*
*2\right	*	*2\right	*	*2\right	*	*2\right	*	*2\right	*	*	*2\right	*	*	*2\right	*	*2\right	*	*2\right	*	*2\right	*	*2\right	*
=1	=1	=1	=1	=1	=1	=1	=1	=1	=1	=1	=1	=1	=1	=1	=1	=1	=1	=1	=1	=1	=1	=1	=1
!	!	!	!	!	!	!	!	!	!	!	!LO:TX:a:t=Largo	!	!	!	!	!	!	!	!	!	!	!	!
!	!	!	!	!	!	!LO:TX:a:t=Largo	!	!LO:TX:a:t=Largo	!	!	!LO:TX:a:t=20.	!	!	!LO:TX:a:t=Largo	!	!LO:TX:t=P:problem:4,8,16\ left middle or right	!	!	!	!LO:TX:a:t=6	!	!LO:TX:a:t=6	!
!LO:TX:a:t=Largo	!LO:DY:b:color=red	!LO:TX:a:t=Largo	!LO:DY:b:color=red	!LO:TX:a:t=Largo	!LO:DY:b:color=red	!LO:TX:t=P:problem:4,8,16\ left middle or right	!LO:DY:b:color=red:rj	!LO:TX:a:t=20	!	!	!	!	!	!	!LO:DY:b:color=red:t=p&colon;:rj	!LO:TX:a:t=Largo	!LO:DY:a:color=red:t=p&colon;:rj	!LO:TX:a:t=Largo	!LO:DY:b:color=red	!LO:TX:a:t=Largo	!	!LO:TX:a:t=Largo	!
4E-\	p	4e-\	p	4g/	p	4b-\	p	0.r	.	.	0.r	.	.	4e-/	p	4ee-\	p	4E-\	p	0.r	.	0.r	.
4E-\	.	4e-\	.	4g/	.	4b-\	.	.	.	.	.	.	.	4e-/	.	4ee-\	.	4E-\	.	.	.	.	.
4E-\	.	4e-\	.	4g/	.	4b-\	.	.	.	.	.	.	.	4e-/	.	4ee-\	.	4E-\	.	.	.	.	.
=2	=2	=2	=2	=2	=2	=2	=2	=2	=2	=2	=2	=2	=2	=2	=2	=2	=2	=2	=2	=2	=2	=2	=2
4E-\	.	4e-\	.	8g/L	.	8bn\L	.	.	.	.	.	.	.	4e-/	.	4ee-\	.	4E-\	.	.	.	.	.
.	.	.	.	8a-/J	.	8cc\J	.	.	.	.	.	.	.	.	.	.	.	.	.	.	.	.	.
4E-\	.	4e-\	.	4a-/	.	4cc\	.	.	.	.	.	.	.	4r	.	4r	.	4E-\	.	.	.	.	.
4E-\	.	4e-\	.	8r	.	8r	.	.	.	.	.	.	.	4r	.	4r	.	4E-\	.	.	.	.	.
!	!	!	!	!	!LO:DY:b:color=red	!	!LO:DY:b:color=red	!	!	!	!	!	!	!	!	!	!	!	!	!	!	!	!
.	.	.	.	16f/LL	f	16a-/LL	f	.	.	.	.	.	.	.	.	.	.	.	.	.	.	.	.
.	.	.	.	16e-/JJ	.	16g/JJ	.	.	.	.	.	.	.	.	.	.	.	.	.	.	.	.	.
=3	=3	=3	=3	=3	=3	=3	=3	=3	=3	=3	=3	=3	=3	=3	=3	=3	=3	=3	=3	=3	=3	=3	=3
!	!	!	!LO:DY:b:color=red	!	!	!	!	!	!	!	!	!	!	!	!LO:DY:b:color=red:rj	!	!LO:DY:a:color=red:t=f&colon;	!	!	!	!	!	!
4BB-/	.	4b-\	f	8d/	.	8f/	.	.	.	.	.	.	.	4b-/	f	4ff\	f	4BB-/	.	.	.	.	.
.	.	.	.	4d/	.	(4f/	.	.	.	.	.	.	.	.	.	.	.	.	.	.	.	.	.
4BB-/	.	4b-\	.	.	.	.	.	.	.	.	.	.	.	4b-/	.	4ff\	.	4BB-/	.	.	.	.	.
.	.	.	.	(8d/L	.	8f/L	.	.	.	.	.	.	.	.	.	.	.	.	.	.	.	.	.
4BB-/	.	4b-\	.	8e-/)	.	8g/)	.	.	.	.	.	.	.	4b-/	.	4ff\	.	4BB-/	.	.	.	.	.
.	.	.	.	8f/J	.	8a-/J	.	.	.	.	.	.	.	.	.	.	.	.	.	.	.	.	.
=4	=4	=4	=4	=4	=4	=4	=4	=4	=4	=4	=4	=4	=4	=4	=4	=4	=4	=4	=4	=4	=4	=4	=4
4E-\	.	4b-\	.	8.g/L	.	8.b-X/L	.	.	.	.	.	.	.	4e-/	.	4gg\	.	4E-\	.	.	.	.	.
.	.	.	.	16e-/Jk	.	16g/Jk	.	.	.	.	.	.	.	.	.	.	.	.	.	.	.	.	.
!	!	!	!	!	!	!	!	!	!	!	!	!	!	!	!	!	!	!LO:TX:t=P:problem:jeszcze jedna pauza ćwierćnutowa	!	!	!	!	!
!	!	!	!	!	!	!	!	!	!	!	!	!	!	!	!	!	!	!LO:N:vis=4	!	!	!	!	!
4r	.	4r	.	4g/	.	8b-/L	.	.	.	.	.	.	.	4r	.	4r	.	8r	.	.	.	.	.
!	!	!	!	!	!	!	!	!	!	!	!	!	!	!	!	!	!	!LO:N:vis=4	!	!	!	!	!
.	.	.	.	.	.	8e-/J	.	.	.	.	.	.	.	.	.	.	.	8r	.	.	.	.	.
4G\	.	8r	.	8r	.	8e-/L	.	.	.	.	.	.	.	8r	.	8bb-\L	.	4GG/	.	.	.	.	.
!	!	!	!LO:DY:b:color=red	!	!LO:DY:b:color=red	!	!LO:DY:a:color=red	!	!	!	!	!	!	!	!LO:DY:b:color=red:t=p&colon;	!	!	!	!	!	!	!	!
.	.	8G/	p	16g/LL	p	(16b-/L	p	.	.	.	.	.	.	16gg\LL	p	8gg\J	.	.	.	.	.	.	.
.	.	.	.	16b-/JJ	.	16g/JJ)	.	.	.	.	.	.	.	16ee-\JJ	.	.	.	.	.	.	.	.	.
=5	=5	=5	=5	=5	=5	=5	=5	=5	=5	=5	=5	=5	=5	=5	=5	=5	=5	=5	=5	=5	=5	=5	=5
4A-\	.	4A-/	.	4a-/ 4cc	.	(16g/LL	.	0.r	.	.	0.r	.	.	4ff\	.	4aa-\	.	4AA-/	.	1.r	.	1.r	.
.	.	.	.	.	.	16f/)	.	.	.	.	.	.	.	.	.	.	.	.	.	.	.	.	.
.	.	.	.	.	.	(16a-/	.	.	.	.	.	.	.	.	.	.	.	.	.	.	.	.	.
.	.	.	.	.	.	16f/JJ)	.	.	.	.	.	.	.	.	.	.	.	.	.	.	.	.	.
4B-\	.	4G/	.	4b-/	.	(16f/LL	.	.	.	.	.	.	.	4ee-\	.	4gg\	.	4BB-/	.	.	.	.	.
.	.	.	.	.	.	16e-/)	.	.	.	.	.	.	.	.	.	.	.	.	.	.	.	.	.
.	.	.	.	.	.	(16g/	.	.	.	.	.	.	.	.	.	.	.	.	.	.	.	.	.
.	.	.	.	.	.	16e-/JJ)	.	.	.	.	.	.	.	.	.	.	.	.	.	.	.	.	.
4BB-/	.	4F/	.	4b-/	.	(16e-/LL	.	.	.	.	.	.	.	4b-/	.	4ff\	.	4BBB-/	.	.	.	.	.
.	.	.	.	.	.	16d/)	.	.	.	.	.	.	.	.	.	.	.	.	.	.	.	.	.
.	.	.	.	.	.	(16f/	.	.	.	.	.	.	.	.	.	.	.	.	.	.	.	.	.
.	.	.	.	.	.	16d/JJ)	.	.	.	.	.	.	.	.	.	.	.	.	.	.	.	.	.
=6	=6	=6	=6	=6	=6	=6	=6	=6	=6	=6	=6	=6	=6	=6	=6	=6	=6	=6	=6	=6	=6	=6	=6
4E-\	.	4G/	.	4b-/	.	(16e-/LL	.	.	.	.	.	.	.	4e-/	.	4ee-\	.	4EE-/	.	.	.	.	.
.	.	.	.	.	.	16B-/	.	.	.	.	.	.	.	.	.	.	.	.	.	.	.	.	.
.	.	.	.	.	.	16c/	.	.	.	.	.	.	.	.	.	.	.	.	.	.	.	.	.
.	.	.	.	.	.	16d/JJ)	.	.	.	.	.	.	.	.	.	.	.	.	.	.	.	.	.
!	!	!	!	!	!	!LO:LB:g=original	!	!	!	!	!	!	!	!	!	!	!	!	!	!	!	!	!
4r	.	4r	.	4r	.	16e-/LL	.	.	.	.	.	.	.	4r	.	4r	.	4r	.	.	.	.	.
.	.	.	.	.	.	16d/	.	.	.	.	.	.	.	.	.	.	.	.	.	.	.	.	.
.	.	.	.	.	.	16e-/	.	.	.	.	.	.	.	.	.	.	.	.	.	.	.	.	.
.	.	.	.	.	.	16f/JJ	.	.	.	.	.	.	.	.	.	.	.	.	.	.	.	.	.
4r	.	4r	.	4r	.	16g/LL	.	.	.	.	.	.	.	4r	.	4r	.	4r	.	.	.	.	.
.	.	.	.	.	.	16f/	.	.	.	.	.	.	.	.	.	.	.	.	.	.	.	.	.
.	.	.	.	.	.	16g/	.	.	.	.	.	.	.	.	.	.	.	.	.	.	.	.	.
.	.	.	.	.	.	16a-/JJ	.	.	.	.	.	.	.	.	.	.	.	.	.	.	.	.	.
=7	=7	=7	=7	=7	=7	=7	=7	=7	=7	=7	=7	=7	=7	=7	=7	=7	=7	=7	=7	=7	=7	=7	=7
!	!LO:DY:b:color=red:t=poco f:rj	!	!LO:DY:b:color=red	!	!LO:DY:b:color=red:t=poco f:rj	!	!LO:DY:b:color=red:t=poco f:rj	!	!	!	!	!	!	!	!LO:DY:a:color=red:t=poco f	!	!LO:DY:a:color=red:t=poc f&colon;	!	!LO:DY:b:color=red	!	!LO:DY:b:color=red	!	!LO:DY:b:color=red
4E-\	f	4e-\	f	4g/	f	4b-\	f	.	.	.	.	.	.	4e-/	f	4ee-\	f	4B-\	f	4gg\	p	4bb-\	p
4E-\	.	4e-\	.	4g/	.	4b-\	.	.	.	.	.	.	.	4e-/	.	4ee-\	.	4B-\	.	4gg\	.	4bb-\	.
4E-\	.	4e-\	.	4g/	.	4b-\	.	.	.	.	.	.	.	4e-/	.	4ee-\	.	4B-\	.	4gg\	.	4bb-\	.
=8	=8	=8	=8	=8	=8	=8	=8	=8	=8	=8	=8	=8	=8	=8	=8	=8	=8	=8	=8	=8	=8	=8	=8
4E-\	.	4e-\	.	8g/L	.	8bn\L	.	.	.	.	.	.	.	4e-/	.	4ee-\	.	8Bn\L	.	8gg\L	.	8bbn\L	.
.	.	.	.	8a-/J	.	8cc\J	.	.	.	.	.	.	.	.	.	.	.	8c\J	.	8aa-\J	.	8ccc\J	.
4E-\	.	4e-\	.	4a-/	.	4cc\	.	.	.	.	.	.	.	4e-/	.	4ee-\	.	4c\	.	4aa-\	.	4ccc\	.
4E-\	.	4e-\	.	8r	.	8r	.	.	.	.	.	.	.	4r	.	4r	.	8r	.	8r	.	8r	.
.	.	.	.	16f/LL	.	16a-/LL	.	.	.	.	.	.	.	.	.	.	.	16A-\LL	.	16ff\LL	.	16aa-\LL	.
.	.	.	.	16e-/JJ	.	16g/JJ	.	.	.	.	.	.	.	.	.	.	.	16G\JJ	.	16ee-\JJ	.	16gg\JJ	.
=9	=9	=9	=9	=9	=9	=9	=9	=9	=9	=9	=9	=9	=9	=9	=9	=9	=9	=9	=9	=9	=9	=9	=9
!	!	!	!	!LO:LB:g=original	!	!	!	!	!	!	!	!	!	!	!	!	!	!	!	!	!	!	!
4BB-/	.	4b-\	.	8d/	.	8f/	.	0.r	.	.	0.r	.	.	8b-/	.	8ff\	.	8F\	.	8dd\	.	8ff\	.
.	.	.	.	4d/	.	4f/	.	.	.	.	.	.	.	4b-/	.	4ff\	.	4F\	.	4dd\	.	4ff\	.
4BB-/	.	4b-\	.	.	.	.	.	.	.	.	.	.	.	.	.	.	.	.	.	.	.	.	.
.	.	.	.	8d/	.	8f/	.	.	.	.	.	.	.	8b-/L	.	8ff\L	.	8F\L	.	8dd\	.	8ff\	.
4BB-/	.	4b-\	.	8e-/L	.	8g/L	.	.	.	.	.	.	.	8ee-/	.	8gg\	.	8G\	.	8ee-\L	.	8gg\L	.
.	.	.	.	8f/J	.	8a-/J	.	.	.	.	.	.	.	8ff/J	.	8aa-\J	.	8A-\J	.	8ff\J	.	8aa-\J	.
=10	=10	=10	=10	=10	=10	=10	=10	=10	=10	=10	=10	=10	=10	=10	=10	=10	=10	=10	=10	=10	=10	=10	=10
!	!	!	!	!	!	!	!	!	!	!	!	!	!	!LO:LB:g=original	!	!	!	!	!	!	!	!	!
4E-\	.	4b-\	.	8.g/L	.	8.b-X/L	.	.	.	.	.	.	.	8.gg\L	.	8.bb-\L	.	8.B-X\L	.	8.gg\L	.	8.bb-X\L	.
.	.	.	.	16e-/Jk	.	16g/Jk	.	.	.	.	.	.	.	16ee-\Jk	.	16gg\Jk	.	16G\Jk	.	16ee-\Jk	.	16gg\Jk	.
!	!	!	!	!	!	!	!	!	!	!	!	!	!	!	!	!	!	!LO:LB:g=original	!	!	!	!	!
4r	.	4r	.	8g/	.	8b-/L	.	.	.	.	.	.	.	8gg\	.	8bb-\	.	8B-\	.	8gg\	.	8bb-\	.
.	.	.	.	8r	.	8e-/J	.	.	.	.	.	.	.	8r	.	8r	.	8r	.	8r	.	8r	.
!	!	!	!	!	!	!	!LO:DY:b:color=red	!	!	!	!	!	!	!	!	!	!	!	!	!	!	!	!
4G\	.	8r	.	8r	.	8e-/L	p	.	.	.	.	.	.	8r	.	8r	.	8r	.	8r	.	8r	.
!	!	!	!LO:DY:b:color=red	!	!	!	!	!	!	!	!	!	!	!	!	!LO:LB:g=original	!	!	!	!	!	!	!
.	.	8G/	p	16g/LL	.	16e-/L	.	.	.	.	.	.	.	16gg\LL	.	16bb-\LL	.	16B-\LL	.	8b-/	.	16bb-\LL	.
.	.	.	.	16b-/JJ	.	16g/JJ	.	.	.	.	.	.	.	16ee-\JJ	.	16gg\JJ	.	16G\JJ	.	.	.	16gg\JJ	.
=11	=11	=11	=11	=11	=11	=11	=11	=11	=11	=11	=11	=11	=11	=11	=11	=11	=11	=11	=11	=11	=11	=11	=11
4A-\	.	4A-/	.	4a-/ 4cc	.	(16g/LL	.	.	.	.	.	.	.	4ff\	.	4aa-\	.	16G\LL	.	4a-/	.	4ff\	.
.	.	.	.	.	.	16f/)	.	.	.	.	.	.	.	.	.	.	.	16F\	.	.	.	.	.
.	.	.	.	.	.	(16a-/	.	.	.	.	.	.	.	.	.	.	.	16A-\	.	.	.	.	.
.	.	.	.	.	.	16f/JJ)	.	.	.	.	.	.	.	.	.	.	.	16F\JJ	.	.	.	.	.
4B-\	.	4G/	.	4b-/	.	(16f/LL	.	.	.	.	.	.	.	4ee-\	.	4gg\	.	16F\LL	.	4g/	.	4ee-\	.
.	.	.	.	.	.	16e-/)	.	.	.	.	.	.	.	.	.	.	.	16E-\	.	.	.	.	.
.	.	.	.	.	.	(16g/	.	.	.	.	.	.	.	.	.	.	.	16G\	.	.	.	.	.
.	.	.	.	.	.	16e-/JJ)	.	.	.	.	.	.	.	.	.	.	.	16E-\JJ	.	.	.	.	.
4BB-/	.	4F/	.	4b-/	.	(16e-/LL	.	.	.	.	.	.	.	4b-/	.	4ff\	.	16E-\LL	.	4f/	.	4dd\	.
.	.	.	.	.	.	16d/)	.	.	.	.	.	.	.	.	.	.	.	16D\	.	.	.	.	.
.	.	.	.	.	.	(16f/	.	.	.	.	.	.	.	.	.	.	.	16F\	.	.	.	.	.
.	.	.	.	.	.	16d/JJ)	.	.	.	.	.	.	.	.	.	.	.	16D\JJ	.	.	.	.	.
=12	=12	=12	=12	=12	=12	=12	=12	=12	=12	=12	=12	=12	=12	=12	=12	=12	=12	=12	=12	=12	=12	=12	=12
!LO:LB:g=original	!	!LO:LB:g=original	!	!	!LO:DY:b:color=red	!	!	!	!	!	!	!	!	!	!	!	!LO:DY:a:color=red:t=f&colon;	!	!LO:DY:b:color=red:rj	!	!	!	!
4E-\	.	4G/	.	8e-/L	f	4e-/	.	.	.	.	.	.	.	4e-/	.	4ee-\	f	8E-\L	p	4g/	.	4ee-\	.
.	.	.	.	32e-/LL	.	.	.	.	.	.	.	.	.	.	.	.	.	32E-\LL	.	.	.	.	.
.	.	.	.	32d/	.	.	.	.	.	.	.	.	.	.	.	.	.	32D\	.	.	.	.	.
.	.	.	.	32e-/	.	.	.	.	.	.	.	.	.	.	.	.	.	32E-\	.	.	.	.	.
.	.	.	.	32f/JJJ	.	.	.	.	.	.	.	.	.	.	.	.	.	32F\JJJ	.	.	.	.	.
*	*	*	*	*	*	*	*	*	*	*	*	*	*	*tremolo	*	*	*	*	*	*	*	*	*
*	*	*	*	*	*	*	*	*	*	*	*	*	*	*	*	*	*	*tremolo	*	*	*	*	*
!	!	!	!	!	!LO:DY:b:color=red	!	!	!	!	!	!	!	!	!	!LO:DY:a:color=red:rj	!	!	!LO:TX:a:t=||||	!	!	!	!	!
4r	.	4r	.	8e-/L	p	4r	.	.	.	.	.	.	.	8e-/L	f	8ee-\L	.	8E-|y\L	.	4r	.	4r	.
.	.	.	.	8e-/	.	.	.	.	.	.	.	.	.	8e-/	.	8ee-\	.	8E-|y\	.	.	.	.	.
4r	.	4r	.	8e-/	.	4r	.	.	.	.	.	.	.	8e-/	.	8ee-\	.	8E-|y\	.	4r	.	4r	.
.	.	.	.	8e-/J	.	.	.	.	.	.	.	.	.	8e-/J	.	8ee-\J	.	8E-\yJ	.	.	.	.	.
*	*	*	*	*	*	*	*	*	*	*	*	*	*	*Xtremolo	*	*	*	*	*	*	*	*	*
=13	=13	=13	=13	=13	=13	=13	=13	=13	=13	=13	=13	=13	=13	=13	=13	=13	=13	=13	=13	=13	=13	=13	=13
*	*	*	*	*tremolo	*	*	*	*	*	*	*	*	*	*	*	*	*	*	*	*	*	*	*
!	!LO:DY:b:color=red	!	!LO:DY:a:color=red	!	!	!LO:LB:g=original	!LO:DY:b:color=red	!	!	!	!	!	!	!	!LO:DY:a:color=red	!	!	!	!LO:DY:b:color=red:rj	!	!LO:DY:b:color=red	!LO:LB:g=original	!LO:DY:b:color=red
2E-\	f	2c/	f	8e-/L	.	2a-/	f	0.r	.	.	0.r	.	.	2.e-/	p	2.ee-\	.	8E-\L	f	2cc\	f	2aa-\	f
.	.	.	.	8e-/	.	.	.	.	.	.	.	.	.	.	.	.	.	8E-\	.	.	.	.	.
.	.	.	.	8e-/	.	.	.	.	.	.	.	.	.	.	.	.	.	8E-\	.	.	.	.	.
.	.	.	.	8e-/	.	.	.	.	.	.	.	.	.	.	.	.	.	8E-\	.	.	.	.	.
4E-\	.	4B-/	.	8e-/	.	4g/	.	.	.	.	.	.	.	.	.	.	.	8E-\	.	4b-\	.	4gg\	.
.	.	.	.	8e-/J	.	.	.	.	.	.	.	.	.	.	.	.	.	8E-\J	.	.	.	.	.
*	*	*	*	*Xtremolo	*	*	*	*	*	*	*	*	*	*	*	*	*	*Xtremolo	*	*	*	*	*
=14	=14	=14	=14	=14	=14	=14	=14	=14	=14	=14	=14	=14	=14	=14	=14	=14	=14	=14	=14	=14	=14	=14	=14
!	!LO:DY:b:color=red	!	!LO:DY:a:color=red	!	!LO:DY:b:color=red	!	!LO:DY:b:color=red	!	!	!	!	!	!	!	!LO:DY:a:color=red	!	!LO:DY:a:color=red:t=p&colon;	!	!LO:DY:b:color=red:rj	!LO:LB:g=original	!LO:DY:b:color=red	!	!LO:DY:b:color=red
4E-\	p	4A-/	p	8e-/L	f	4f/	p	.	.	.	.	.	.	8e-/L	f	8ee-\L	p	8E-\L	p	4a-/	p	4ff\	p
.	.	.	.	32e-/LL	.	.	.	.	.	.	.	.	.	16e-/L	.	16ee-\L	.	32E-\LL	.	.	.	.	.
.	.	.	.	32d/	.	.	.	.	.	.	.	.	.	.	.	.	.	32D\	.	.	.	.	.
.	.	.	.	32e-/	.	.	.	.	.	.	.	.	.	16e-/JJ	.	16ee-\JJ	.	32E-\	.	.	.	.	.
.	.	.	.	32f/JJJ	.	.	.	.	.	.	.	.	.	.	.	.	.	32F\JJJ	.	.	.	.	.
*	*	*	*	*tremolo	*	*	*	*	*	*	*	*	*	*tremolo	*	*tremolo	*	*tremolo	*	*	*	*	*
!	!	!	!	!	!LO:DY:b:color=red	!	!	!	!	!	!	!	!	!	!	!	!	!	!	!	!	!	!
4r	.	4r	.	8e-/L	p	4r	.	.	.	.	.	.	.	8e-/L	.	8ee-\L	.	8E-\L	.	4r	.	4r	.
.	.	.	.	8e-/	.	.	.	.	.	.	.	.	.	8e-/	.	8ee-\	.	8E-\	.	.	.	.	.
4r	.	4r	.	8e-/	.	4r	.	.	.	.	.	.	.	8e-/	.	8ee-\	.	8E-\	.	4r	.	4r	.
.	.	.	.	8e-/J	.	.	.	.	.	.	.	.	.	8e-/J	.	8ee-\J	.	8E-\J	.	.	.	.	.
*	*	*	*	*	*	*	*	*	*	*	*	*	*	*Xtremolo	*	*Xtremolo	*	*	*	*	*	*	*
=15	=15	=15	=15	=15	=15	=15	=15	=15	=15	=15	=15	=15	=15	=15	=15	=15	=15	=15	=15	=15	=15	=15	=15
!	!LO:DY:b:color=red	!	!LO:DY:b:color=red	!	!	!	!LO:DY:b:color=red	!	!	!	!	!	!	!	!LO:DY:a:color=red	!	!LO:DY:a:color=red:t=f&colon;	!	!LO:DY:b:color=red	!	!LO:DY:b:color=red	!	!LO:DY:b:color=red
2E-\	f	2g\	f	8e-/L	.	2b-/	f	.	.	.	.	.	.	2.e-/	p	2.ee-\	f	8E-\L	f	2gg\	f	2bb-\	f
.	.	.	.	8e-/	.	.	.	.	.	.	.	.	.	.	.	.	.	8E-\	.	.	.	.	.
.	.	.	.	8e-/	.	.	.	.	.	.	.	.	.	.	.	.	.	8E-\	.	.	.	.	.
.	.	.	.	8e-/	.	.	.	.	.	.	.	.	.	.	.	.	.	8E-\	.	.	.	.	.
4E-\	.	4f\	.	8e-/	.	4a-/	.	.	.	.	.	.	.	.	.	.	.	8E-\	.	4ff\	.	4aa-\	.
.	.	.	.	8e-/J	.	.	.	.	.	.	.	.	.	.	.	.	.	8E-\J	.	.	.	.	.
*	*	*	*	*Xtremolo	*	*	*	*	*	*	*	*	*	*	*	*	*	*Xtremolo	*	*	*	*	*
=16	=16	=16	=16	=16	=16	=16	=16	=16	=16	=16	=16	=16	=16	=16	=16	=16	=16	=16	=16	=16	=16	=16	=16
!	!LO:DY:b:color=red	!	!LO:DY:b:color=red	!	!LO:DY:b:color=red	!	!LO:DY:b:color=red	!	!	!	!	!	!	!	!LO:DY:a:color=red	!	!LO:DY:a:color=red:t=p&colon;	!	!LO:DY:b:color=red	!	!LO:DY:b:color=red	!	!LO:DY:b:color=red
4E-\	p	4e-\	p	8e-/L	f	4g/	p	.	.	.	.	.	.	8e-/L	f	8ee-\L	p	8E-\L	p	4ee-\	p	4gg\	p
.	.	.	.	(32e-/LL	.	.	.	.	.	.	.	.	.	16e-/L	.	16ee-\L	.	32E-\LL	.	.	.	.	.
.	.	.	.	32d/	.	.	.	.	.	.	.	.	.	.	.	.	.	32D\	.	.	.	.	.
.	.	.	.	32e-/	.	.	.	.	.	.	.	.	.	16e-/JJ	.	16ee-\JJ	.	32E-\	.	.	.	.	.
.	.	.	.	32f/JJJ)	.	.	.	.	.	.	.	.	.	.	.	.	.	32F\JJJ	.	.	.	.	.
*	*	*	*	*tremolo	*	*	*	*	*	*	*	*	*	*tremolo	*	*tremolo	*	*tremolo	*	*	*	*	*
!	!	!	!	!	!LO:DY:b:color=red	!	!	!	!	!	!	!	!	!	!	!	!	!	!	!	!	!	!
4r	.	4r	.	8e-/L	p	4r	.	.	.	.	.	.	.	8e-/L	.	8ee-\L	.	8E-\L	.	4r	.	4r	.
.	.	.	.	8e-/	.	.	.	.	.	.	.	.	.	8e-/	.	8ee-\	.	8E-\	.	.	.	.	.
4r	.	4r	.	8e-/	.	4r	.	.	.	.	.	.	.	8e-/	.	8ee-\	.	8E-\	.	4r	.	4r	.
.	.	.	.	8e-/J	.	.	.	.	.	.	.	.	.	8e-/J	.	8ee-\J	.	8E-\J	.	.	.	.	.
*	*	*	*	*	*	*	*	*	*	*	*	*	*	*Xtremolo	*	*Xtremolo	*	*Xtremolo	*	*	*	*	*
=17	=17	=17	=17	=17	=17	=17	=17	=17	=17	=17	=17	=17	=17	=17	=17	=17	=17	=17	=17	=17	=17	=17	=17
!	!LO:DY:b:color=red	!	!LO:DY:b:color=red	!LO:LB:g=original	!	!	!LO:DY:b:color=red	!	!	!	!	!	!	!	!LO:DY:a:color=red	!	!LO:DY:a:color=red:t=f&colon;	!	!LO:DY:b:color=red	!LO:TX:a:t=2	!	!LO:TX:a:t=2	!
2E-\	f	2cc\	f	8e-/L	.	2ee-\	f	0.r	.	.	0.r	.	.	4e-/	p	4ee-\	f	2E-\	f	1.r	.	1.r	.
.	.	.	.	8e-/	.	.	.	.	.	.	.	.	.	.	.	.	.	.	.	.	.	.	.
.	.	.	.	8e-/	.	.	.	.	.	.	.	.	.	4r	.	4r	.	.	.	.	.	.	.
.	.	.	.	8e-/	.	.	.	.	.	.	.	.	.	.	.	.	.	.	.	.	.	.	.
4r	.	4b-\	.	8e-/	.	4dd\	.	.	.	.	.	.	.	4r	.	4r	.	4D\	.	.	.	.	.
.	.	.	.	8e-/J	.	.	.	.	.	.	.	.	.	.	.	.	.	.	.	.	.	.	.
=18	=18	=18	=18	=18	=18	=18	=18	=18	=18	=18	=18	=18	=18	=18	=18	=18	=18	=18	=18	=18	=18	=18	=18
!	!	!	!LO:DY:b:color=red	!	!	!	!LO:DY:b:color=red	!	!	!	!	!	!	!LO:TX:t=i:a	!	!LO:TX:a:t=i	!	!	!LO:DY:b:color=red	!	!	!	!
4r	.	4a-\	p	8e-/L	.	4cc\	p	.	.	.	.	.	.	2.r	.	2.r	.	4C/	p	.	.	.	.
.	.	.	.	8e-/	.	.	.	.	.	.	.	.	.	.	.	.	.	.	.	.	.	.	.
4r	.	4g\	.	8e-/	.	4b-\	.	.	.	.	.	.	.	.	.	.	.	4BB-/	.	.	.	.	.
.	.	.	.	8e-/	.	.	.	.	.	.	.	.	.	.	.	.	.	.	.	.	.	.	.
!	!LO:DY:b:color=red	!	!	!	!	!	!	!	!	!	!	!	!	!	!	!	!	!	!	!	!	!	!
4BB-/	p	4f\	.	8e-/	.	4a-\	.	.	.	.	.	.	.	.	.	.	.	4AA-/	.	.	.	.	.
.	.	.	.	8e-/J	.	.	.	.	.	.	.	.	.	.	.	.	.	.	.	.	.	.	.
=19	=19	=19	=19	=19	=19	=19	=19	=19	=19	=19	=19	=19	=19	=19	=19	=19	=19	=19	=19	=19	=19	=19	=19
!	!	!	!	!	!	!	!	!	!	!	!	!	!	!	!LO:DY:rj:color=red:b	!	!	!LO:LB:g=original	!	!	!	!	!
4E-\	.	4e-\	.	8b-\L	.	4g/	.	.	.	.	.	.	.	4ee-\	f	4gg\	.	4GG/	.	4r	.	4r	.
.	.	.	.	8b-\	.	.	.	.	.	.	.	.	.	.	.	.	.	.	.	.	.	.	.
4BB-/	.	4d\	.	8b-\	.	4f/	.	.	.	.	.	.	.	4b-/	.	4ff\	.	4FF/	.	4r	.	4r	.
.	.	.	.	8b-\	.	.	.	.	.	.	.	.	.	.	.	.	.	.	.	.	.	.	.
!	!	!	!	!	!	!	!	!	!	!	!	!	!	!	!	!	!	!	!	!	!LO:DY:b:color=red	!	!LO:DY:b:color=red
4D/	.	4f\	.	8b-\	.	4a-/	.	.	.	.	.	.	.	4r	.	4r	.	4AA-/	.	4ff\	p	4aa-\	p
.	.	.	.	8b-\J	.	.	.	.	.	.	.	.	.	.	.	.	.	.	.	.	.	.	.
=20	=20	=20	=20	=20	=20	=20	=20	=20	=20	=20	=20	=20	=20	=20	=20	=20	=20	=20	=20	=20	=20	=20	=20
!	!	!	!	!	!	!	!	!	!	!	!	!	!	!LO:LB:g=original	!	!	!	!	!	!	!	!	!
4E-\	.	4e-\	.	8b-\L	.	4g/	.	.	.	.	.	.	.	4e-/	.	4gg\	.	4GG/	.	4ee-\	.	4gg\	.
.	.	.	.	8b-\	.	.	.	.	.	.	.	.	.	.	.	.	.	.	.	.	.	.	.
4BB-/	.	4d\	.	8b-\	.	4f/	.	.	.	.	.	.	.	4b-/	.	4ff\	.	4FF/	.	4dd\	.	4ff\	.
.	.	.	.	8b-\	.	.	.	.	.	.	.	.	.	.	.	.	.	.	.	.	.	.	.
4D\	.	4f\	.	8b-\	.	4a-/	.	.	.	.	.	.	.	4r	.	4r	.	4AA-/	.	4ff\	.	4aa-\	.
.	.	.	.	8b-\J	.	.	.	.	.	.	.	.	.	.	.	.	.	.	.	.	.	.	.
*	*	*	*	*Xtremolo	*	*	*	*	*	*	*	*	*	*	*	*	*	*	*	*	*	*	*
=21	=21	=21	=21	=21	=21	=21	=21	=21	=21	=21	=21	=21	=21	=21	=21	=21	=21	=21	=21	=21	=21	=21	=21
4E-\	.	4e-\	.	4b-\	.	4g/	.	4r	.	.	4r	.	.	4e-/	.	4gg\	.	4GG/	.	4ee-\	.	4gg\	.
4BB-/	.	4d\	.	4b-\	.	4f/	.	4r	.	.	4r	.	.	4b-/	.	4ff\	.	4FF/	.	4dd\	.	4ff\	.
8r;	.	8r;	.	8r;	.	8r;	.	8r;	.	.	8r;	.	.	8r;	.	8r;	.	8r;	.	8r;	.	8r;	.
!	!	!	!	!	!	!	!LO:DY:b:color=red:rj	!	!	!	!	!	!	!	!	!	!	!	!	!	!	!	!
8r	.	8r	.	8r	.	8B-/	f	8r	.	.	8r	.	.	8r	.	8r	.	8r	.	8r	.	8r	.
=22	=22	=22	=22	=22	=22	=22	=22	=22	=22	=22	=22	=22	=22	=22	=22	=22	=22	=22	=22	=22	=22	=22	=22
!	!	!	!	!	!	!	!	!	!	!	!LO:TX:a:t=16.	!	!	!	!	!	!	!	!	!	!	!	!
!	!LO:DY:b:color=red	!LO:TX:a:t=i	!	!LO:TX:t=P:problem:i	!	!	!	!LO:TX:a:t=22	!	!	!LO:TX:b:t=16.	!	!	!LO:TX:t=1:a	!	!LO:TX:a:t=i	!	!	!	!	!	!LO:TX:a:t=i	!
4BB-/	f	2.r	.	2.r	.	8d/L	.	0.r	.	.	0.r	.	.	2.r	.	2.r	.	2.r	.	2.r	.	2.r	.
.	.	.	.	.	.	8f/	.	.	.	.	.	.	.	.	.	.	.	.	.	.	.	.	.
4r	.	.	.	.	.	8b-/	.	.	.	.	.	.	.	.	.	.	.	.	.	.	.	.	.
.	.	.	.	.	.	8dd/J	.	.	.	.	.	.	.	.	.	.	.	.	.	.	.	.	.
4r	.	.	.	.	.	8ff\L	.	.	.	.	.	.	.	.	.	.	.	.	.	.	.	.	.
.	.	.	.	.	.	8gg\J	.	.	.	.	.	.	.	.	.	.	.	.	.	.	.	.	.
=23	=23	=23	=23	=23	=23	=23	=23	=23	=23	=23	=23	=23	=23	=23	=23	=23	=23	=23	=23	=23	=23	=23	=23
!	!	!	!	!	!LO:DY:b:color=red	!	!	!	!	!	!	!	!	!	!	!LO:LB:g=original	!	!	!	!	!	!	!
4r	.	4r	.	4ff\	f	4aa-\	.	.	.	.	.	.	.	4r	.	4r	.	4r	.	4r	.	4r	.
!	!	!	!LO:DY:b:color=red	!	!	!	!	!	!	!	!	!	!	!	!LO:DY:b:color=red	!	!	!	!LO:DY:b:color=red:rj	!	!LO:DY:b:color=red	!	!LO:DY:b:color=red
4BB-/	.	4b-\	f	4a-/	.	4dd\	.	.	.	.	.	.	.	4b-/	p	4ff\	.	4BB-/	f	4ff\	f	4aa-\	f
4E-/	.	4cc\	.	4g/	.	4ee-\	.	.	.	.	.	.	.	4ee-\	.	4gg\	.	4E-\	.	4ee-\	.	4gg\	.
=24	=24	=24	=24	=24	=24	=24	=24	=24	=24	=24	=24	=24	=24	=24	=24	=24	=24	=24	=24	=24	=24	=24	=24
!	!	!	!	!	!	!LO:LB:g=original	!	!	!	!	!	!	!	!	!	!	!	!	!	!	!	!	!
.	.	.	.	.	.	8qqdd/	.	.	.	.	.	.	.	.	.	.	.	.	.	.	.	.	.
*	*	*	*	*Xtuplet	*	*Xtuplet	*	*	*	*	*	*	*	*	*	*	*	*	*	*	*	*	*
4A-\	.	4cc\	.	12a-/L	.	12cc\L	.	.	.	.	.	.	.	4b-/	.	4ff\	.	4A-\	.	4a-/	.	4ff\	.
.	.	.	.	12g/	.	12b-\	.	.	.	.	.	.	.	.	.	.	.	.	.	.	.	.	.
.	.	.	.	12f/J	.	12a-\J	.	.	.	.	.	.	.	.	.	.	.	.	.	.	.	.	.
4B-\	.	4b-\	.	4e-/	.	4g/	.	.	.	.	.	.	.	4g/	.	4ee-\	.	4B-\	.	4g/	.	4ee-\	.
4BB-/	.	4b-\	.	4d/	.	4f/	.	.	.	.	.	.	.	4b-/	.	4ff\	.	4BB-/	.	4f/	.	4dd\	.
=25	=25	=25	=25	=25	=25	=25	=25	=25	=25	=25	=25	=25	=25	=25	=25	=25	=25	=25	=25	=25	=25	=25	=25
!LO:LB:g=original	!	!LO:LB:g=original	!LO:DY:b:color=red	!	!LO:DY:b:color=red	!	!LO:DY:b:color=red	!	!	!	!	!	!	!	!	!	!	!	!	!	!	!	!
4E-\	.	4g\	p	4ee-\	p	4gg\	p	.	.	.	.	.	.	4g/	.	4ee-\	.	4E-\	.	4g/	.	4ee-\	.
4r	.	4a-\	.	4ff\	.	4aa-\	.	.	.	.	.	.	.	4r	.	4r	.	4r	.	4r	.	4r	.
4r	.	4b-\	.	4gg\	.	4bb-\	.	.	.	.	.	.	.	4r	.	4r	.	4r	.	4r	.	4r	.
=26	=26	=26	=26	=26	=26	=26	=26	=26	=26	=26	=26	=26	=26	=26	=26	=26	=26	=26	=26	=26	=26	=26	=26
!	!LO:DY:b:color=red	!	!	!	!	!	!	!	!	!	!	!	!	!	!	!LO:TX:a:t=4	!	!	!	!LO:TX:a:t=3	!	!	!
!	!	!	!	!	!	!	!	!	!	!	!	!	!	!LO:TX:t=5:a	!	!LO:TX:b:t=4:color=lightgrey:note=ołówkiem	!	!	!	!	!	!LO:TX:a:t=3	!
4r	p	2.cc\	.	2.aa-\	.	2.ccc\	.	0.r	.	.	0.r	.	.	0.r	.	0.r	.	4r	.	1.r	.	1.r	.
!	!	!	!	!	!	!	!	!	!	!	!	!	!	!	!	!	!	!	!LO:DY:b:color=red:rj	!	!	!	!
4A-\	.	.	.	.	.	.	.	.	.	.	.	.	.	.	.	.	.	4A-\	p	.	.	.	.
4AA-/	.	.	.	.	.	.	.	.	.	.	.	.	.	.	.	.	.	4AA-/	.	.	.	.	.
=27	=27	=27	=27	=27	=27	=27	=27	=27	=27	=27	=27	=27	=27	=27	=27	=27	=27	=27	=27	=27	=27	=27	=27
4r	.	2.b-\	.	2.gg\	.	2.bb-\	.	.	.	.	.	.	.	.	.	.	.	4r	.	.	.	.	.
4E-\	.	.	.	.	.	.	.	.	.	.	.	.	.	.	.	.	.	4E-\	.	.	.	.	.
4EE-/	.	.	.	.	.	.	.	.	.	.	.	.	.	.	.	.	.	4EE-/	.	.	.	.	.
=28	=28	=28	=28	=28	=28	=28	=28	=28	=28	=28	=28	=28	=28	=28	=28	=28	=28	=28	=28	=28	=28	=28	=28
4r	.	2.a-\	.	2.ff\	.	2.aa-\	.	.	.	.	.	.	.	.	.	.	.	4r	.	2.r	.	2.r	.
4B-\	.	.	.	.	.	.	.	.	.	.	.	.	.	.	.	.	.	4BB-/	.	.	.	.	.
4BB-/	.	.	.	.	.	.	.	.	.	.	.	.	.	.	.	.	.	4BBB-/	.	.	.	.	.
=29	=29	=29	=29	=29	=29	=29	=29	=29	=29	=29	=29	=29	=29	=29	=29	=29	=29	=29	=29	=29	=29	=29	=29
!	!	!	!	!	!	!	!LO:DY:b:color=red	!	!	!	!	!	!	!	!	!	!	!	!LO:DY:b:color=red	!LO:LB:g=original	!LO:DY:b:color=red	!LO:LB:g=original	!LO:DY:b:color=red
4E-\	.	4g\	.	4ee-\	.	4e-/	p	.	.	.	.	.	.	.	.	.	.	4G\	p	4ee-\	p	4gg\	p
4r	.	4r	.	4r	.	4f/	.	.	.	.	.	.	.	.	.	.	.	4A-\	.	4ff\	.	4aa-\	.
4r	.	4r	.	4r	.	4g/	.	.	.	.	.	.	.	.	.	.	.	4B-\	.	4gg\	.	4bb-\	.
=30	=30	=30	=30	=30	=30	=30	=30	=30	=30	=30	=30	=30	=30	=30	=30	=30	=30	=30	=30	=30	=30	=30	=30
!	!	!	!	!LO:LB:g=original	!	!	!	!	!	!	!	!	!	!	!	!	!LO:DY:a:color=red:t=p&colon;	!	!	!	!	!	!
4r	.	8r	.	8r	.	2.a-/	.	0.r	.	.	0.r	.	.	2.r	.	2.ee-\	p	2.c\	.	2.aa-\	.	2.ccc\	.
!	!	!	!LO:DY:b:color=red	!	!LO:DY:b:color=red:rj	!	!	!	!	!	!	!	!	!	!	!	!	!	!	!	!	!	!
.	.	8e-/L	pp	8a-/L	pp	.	.	.	.	.	.	.	.	.	.	.	.	.	.	.	.	.	.
4A-\	.	8c/	.	8e-/	.	.	.	.	.	.	.	.	.	.	.	.	.	.	.	.	.	.	.
.	.	8A-/	.	8c/	.	.	.	.	.	.	.	.	.	.	.	.	.	.	.	.	.	.	.
4AA-/	.	8c/	.	8e-/	.	.	.	.	.	.	.	.	.	.	.	.	.	.	.	.	.	.	.
.	.	8e-/J	.	8a-/J	.	.	.	.	.	.	.	.	.	.	.	.	.	.	.	.	.	.	.
=31	=31	=31	=31	=31	=31	=31	=31	=31	=31	=31	=31	=31	=31	=31	=31	=31	=31	=31	=31	=31	=31	=31	=31
!	!	!	!	!	!	!	!	!	!	!	!	!	!	!	!LO:DY:b:color=red:rj	!	!	!	!	!	!	!	!
4r	.	8r	.	8r	.	2.g/	.	.	.	.	.	.	.	2.e-/	p	2.ee-\	.	2.B-\	.	2.gg\	.	2.bb-\	.
.	.	8e-/L	.	8g/L	.	.	.	.	.	.	.	.	.	.	.	.	.	.	.	.	.	.	.
4E-\	.	8B-/	.	8e-/	.	.	.	.	.	.	.	.	.	.	.	.	.	.	.	.	.	.	.
.	.	8G/	.	8B-/	.	.	.	.	.	.	.	.	.	.	.	.	.	.	.	.	.	.	.
4EE-/	.	8B-/	.	8e-/	.	.	.	.	.	.	.	.	.	.	.	.	.	.	.	.	.	.	.
.	.	8e-/J	.	8g/J	.	.	.	.	.	.	.	.	.	.	.	.	.	.	.	.	.	.	.
=32	=32	=32	=32	=32	=32	=32	=32	=32	=32	=32	=32	=32	=32	=32	=32	=32	=32	=32	=32	=32	=32	=32	=32
4r	.	8r	.	8r	.	2.f/	.	.	.	.	.	.	.	2.b-/	.	2.ff\	.	2.A-\	.	2.ff\	.	2.aa-\	.
.	.	8d/L	.	8f/L	.	.	.	.	.	.	.	.	.	.	.	.	.	.	.	.	.	.	.
4B-\	.	8B-/	.	8d/	.	.	.	.	.	.	.	.	.	.	.	.	.	.	.	.	.	.	.
.	.	8F/	.	8B-/	.	.	.	.	.	.	.	.	.	.	.	.	.	.	.	.	.	.	.
4BB-/	.	8B-/	.	8d/	.	.	.	.	.	.	.	.	.	.	.	.	.	.	.	.	.	.	.
.	.	8d/J	.	8f/J	.	.	.	.	.	.	.	.	.	.	.	.	.	.	.	.	.	.	.
=33	=33	=33	=33	=33	=33	=33	=33	=33	=33	=33	=33	=33	=33	=33	=33	=33	=33	=33	=33	=33	=33	=33	=33
8.E-\L	.	8.e-\L	.	8.e-/L	.	8.g/L	.	.	.	.	.	.	.	4e-/	.	4ee-\	.	8.G\L	.	8.ee-\L	.	8.gg\L	.
16BB-\Jk	.	16B-\Jk	.	16f/Jk	.	16a-/Jk	.	.	.	.	.	.	.	.	.	.	.	16D\Jk	.	16ff\Jk	.	16aa-\Jk	.
!	!	!	!	!	!	!	!	!	!	!	!	!	!	!	!	!	!	!LO:LB:g=original	!	!	!	!	!
4E-\	.	4e-\	.	4g/	.	4b-/	.	.	.	.	.	.	.	4e-/	.	4ee-\	.	4E-\	.	4gg\	.	4bb-\	.
4r	.	4r	.	8r	.	8r	.	.	.	.	.	.	.	4r	.	4r	.	4r	.	4r	.	4r	.
!	!	!	!	!	!LO:DY:b:color=red	!	!LO:DY:b:color=red	!	!	!	!	!	!	!	!	!	!	!	!	!	!	!	!
.	.	.	.	8g/	f	8ee-\	f	.	.	.	.	.	.	.	.	.	.	.	.	.	.	.	.
=34	=34	=34	=34	=34	=34	=34	=34	=34	=34	=34	=34	=34	=34	=34	=34	=34	=34	=34	=34	=34	=34	=34	=34
.	.	.	.	.	.	16qqdd/	.	.	.	.	.	.	.	.	.	.	.	.	.	.	.	.	.
*	*	*	*	*	*	*tuplet	*	*	*	*	*	*	*	*	*	*	*	*	*	*	*	*	*
!	!LO:DY:b:color=red	!	!LO:DY:b:color=red	!	!	!LO:TUP:a:problem:klamra łukowa	!	!	!	!	!	!	!	!	!LO:DY:b:color=red	!	!LO:DY:a:color=red:t=f&colon;	!	!LO:DY:b:color=red:rj	!	!LO:DY:b:color=red	!	!LO:DY:b:color=red
4A-\	f	4cc\	f	12a-/L	.	12cc\L	.	0.r	.	.	0.r	.	.	4b-/	f	4ff\	f	4AA-/	f	4a-/	f	4ff\	f
.	.	.	.	12g/	.	12b-\	.	.	.	.	.	.	.	.	.	.	.	.	.	.	.	.	.
.	.	.	.	12f/J	.	12a-\J	.	.	.	.	.	.	.	.	.	.	.	.	.	.	.	.	.
4B-\	.	4b-\	.	4e-/	.	4g/	.	.	.	.	.	.	.	4ee-\	.	4gg\	.	4BB-/	.	4g/	.	4ee-\	.
4BB-/	.	4b-\	.	4d/	.	4f/	.	.	.	.	.	.	.	4b-/	.	4ff\	.	4BBB-/	.	4f/	.	4dd\	.
=35	=35	=35	=35	=35	=35	=35	=35	=35	=35	=35	=35	=35	=35	=35	=35	=35	=35	=35	=35	=35	=35	=35	=35
4E-\	.	8B-/	.	8.G/L	.	8.e-/L	.	.	.	.	.	.	.	8.g/L	.	8.ee-\L	.	8.E-\L	.	(8.g/L	.	8.ee-\L	.
.	.	4B-/	.	.	.	.	.	.	.	.	.	.	.	.	.	.	.	.	.	.	.	.	.
.	.	.	.	16A-/K	.	16d/K	.	.	.	.	.	.	.	16b-/K	.	16ff\K	.	16F\K	.	16a-/K)	.	16dd\K	.
4E-\	.	.	.	8.G/	.	8.e-/	.	.	.	.	.	.	.	8.g/	.	8.ee-\	.	8.E-\	.	(8.g/	.	8.ee-\	.
.	.	4B-/	.	.	.	.	.	.	.	.	.	.	.	.	.	.	.	.	.	.	.	.	.
.	.	.	.	16A-/K	.	16d/K	.	.	.	.	.	.	.	16b-/K	.	16ff\K	.	16F\K	.	16a-/K)	.	16dd\K	.
4E-\	.	.	.	8.G/	.	8.e-/	.	.	.	.	.	.	.	8.g/	.	8.ee-\	.	8.E-\	.	(8.g/	.	8.ee-\	.
.	.	8B-/	.	.	.	.	.	.	.	.	.	.	.	.	.	.	.	.	.	.	.	.	.
.	.	.	.	16A-/Jk	.	16d/Jk	.	.	.	.	.	.	.	16b-/Jk	.	16ff\Jk	.	16F\Jk	.	16a-/Jk)	.	16dd\Jk	.
=36	=36	=36	=36	=36	=36	=36	=36	=36	=36	=36	=36	=36	=36	=36	=36	=36	=36	=36	=36	=36	=36	=36	=36
!	!	!LO:LB:g=original	!	!	!	!LO:LB:g=original	!	!	!	!	!	!	!	!LO:LB:g=original 	!	!	!	!	!	!	!	!	!
4E-\	.	4B-/	.	4G/	.	4e-/	.	.	.	.	.	.	.	4g/	.	4ee-\	.	4E-\	.	4g/	.	4ee-\	.
4EE-/	.	4B-/	.	4G/	.	4e-/	.	.	.	.	.	.	.	4g/	.	4ee-\	.	4EE-/	.	4g/	.	4ee-\	.
4EE-/	.	4B-/	.	4G/	.	4e-/	.	.	.	.	.	.	.	4g/	.	4ee-\	.	4EE-/	.	4g/	.	4ee-\	.
=37	=37	=37	=37	=37	=37	=37	=37	=37	=37	=37	=37	=37	=37	=37	=37	=37	=37	=37	=37	=37	=37	=37	=37
!LO:LB:g=original	!	!	!	!	!	!	!	!	!	!	!	!	!	!	!	!	!	!	!	!	!	!	!
2EE-/	.	2B-/	.	2G/	.	2e-/	.	.	.	.	.	.	.	2e-/	.	2ee-\	.	2EE-/	.	2g/	.	2ee-\	.
4r	.	4r	.	4r	.	4r	.	.	.	.	.	.	.	4r	.	4r	.	4r	.	4r	.	4r	.
=38	=38	=38	=38	=38	=38	=38	=38	=38	=38	=38	=38	=38	=38	=38	=38	=38	=38	=38	=38	=38	=38	=38	=38
!	!	!	!	!	!	!	!	!	!	!	!LO:TX:t=P:problem:4,8,16\ left middle or right	!	!	!	!	!	!	!	!	!	!	!	!
!LO:TX:t=P:problem:ołówkowa adnotacja "Spiew"	!LO:DY:b:color=red	!	!LO:DY:b:color=red:t=piano	!	!LO:DY:b:color=red	!LO:TX:t=P:problem:ołówkowa adnotacja Oz (C2?) śpiewa;	!LO:DY:b:color=red:rj	!	!	!	!	!	!LO:DY:a:color=red:t=p.	!LO:TX:a:t=ii	!	!LO:TX:a:t=ii	!	!	!LO:DY:b:color=red	!LO:TX:a:t=6	!	!LO:TX:a:t=6	!
4E-\	p	4e-\	p	4g/	p	4b-\	p	0.r	.	.	4b-\	Quid	p	0.r	.	0.r	.	4E-\	p	0.r	.	0.r	.
*	*	*	*	*	*	*	*	*	*	*	*	*ij	*	*	*	*	*	*	*	*	*	*	*
4E-\	.	4e-\	.	4g/	.	4b-\	.	.	.	.	4b-\	Quid	.	.	.	.	.	4E-\	.	.	.	.	.
*	*	*	*	*	*	*	*	*	*	*	*	*Xij	*	*	*	*	*	*	*	*	*	*	*
4E-\	.	4e-\	.	4g/	.	4b-\	.	.	.	.	4b-\	Di-	.	.	.	.	.	4E-\	.	.	.	.	.
=39	=39	=39	=39	=39	=39	=39	=39	=39	=39	=39	=39	=39	=39	=39	=39	=39	=39	=39	=39	=39	=39	=39	=39
!	!	!	!	!LO:LB:g=original	!	!	!	!	!	!	!	!	!	!	!	!	!	!	!	!	!	!	!
4E-\	.	4e-\	.	(8g/L	.	(8bn\L	.	.	.	.	8bn\L	-vi-	.	.	.	.	.	4E-\	.	.	.	.	.
.	.	.	.	8a-/J	.	8cc\J	.	.	.	.	8cc\J	.	.	.	.	.	.	.	.	.	.	.	.
4E-\	.	4e-\	.	4a-/)	.	4cc\)	.	.	.	.	4cc\	-nus	.	.	.	.	.	4E-\	.	.	.	.	.
4E-\	.	4e-\	.	8r	.	8r	.	.	.	.	8r	.	.	.	.	.	.	4E-\	.	.	.	.	.
!	!	!	!	!	!	!	!	!	!	!	!	!	!LO:DY:a:color=red	!	!	!	!	!	!	!	!	!	!
.	.	.	.	(16f/LL	.	(16a-/LL	.	.	.	.	16a-\LL	Di-	f	.	.	.	.	.	.	.	.	.	.
.	.	.	.	16e-/JJ)	.	16g/JJ)	.	.	.	.	16g\JJ	.	.	.	.	.	.	.	.	.	.	.	.
=40	=40	=40	=40	=40	=40	=40	=40	=40	=40	=40	=40	=40	=40	=40	=40	=40	=40	=40	=40	=40	=40	=40	=40
4B-\	.	4b-\	.	8d/	.	8f/	.	.	.	.	8f/	-vi-	.	.	.	.	.	4BB-/	.	.	.	.	.
.	.	.	.	4d/	.	4f/	.	.	.	.	4f/	-nus	.	.	.	.	.	.	.	.	.	.	.
4BB-/	.	4b-\	.	.	.	.	.	.	.	.	.	.	.	.	.	.	.	4BB-/	.	.	.	.	.
.	.	.	.	(8d/L	.	(8f/L	.	.	.	.	8f/L	a-	.	.	.	.	.	.	.	.	.	.	.
4BB-/	.	4b-\	.	8e-/	.	8g/	.	.	.	.	8g/J	.	.	.	.	.	.	4BB-/	.	.	.	.	.
.	.	.	.	8f/J)	.	8a-/J)	.	.	.	.	8a-/	-mor	.	.	.	.	.	.	.	.	.	.	.
=41	=41	=41	=41	=41	=41	=41	=41	=41	=41	=41	=41	=41	=41	=41	=41	=41	=41	=41	=41	=41	=41	=41	=41
!	!	!	!	!	!	!	!	!	!	!	!LO:LB:g=original	!	!	!	!	!	!	!	!	!	!	!	!
4E-\	.	4b-\	.	8.g/L	.	8.b-X\L	.	.	.	.	8.b-X\L	pos-	.	.	.	.	.	4EE-/	.	.	.	.	.
.	.	.	.	16e-/Jk	.	16g\Jk	.	.	.	.	16g\Jk	.	.	.	.	.	.	.	.	.	.	.	.
4r	.	4r	.	8g/	.	8b-\	.	.	.	.	8b-\	-ſit	.	.	.	.	.	4r	.	.	.	.	.
.	.	.	.	8r	.	8e-/L	.	.	.	.	8r	.	.	.	.	.	.	.	.	.	.	.	.
8r	.	8r	.	8r	.	8e-/J	.	.	.	.	8r	.	.	.	.	.	.	8r	.	.	.	.	.
8G\	.	8G/	.	16g/LL	.	(16b-/LL	.	.	.	.	16b-\	Di-	.	.	.	.	.	8GG/	.	.	.	.	.
.	.	.	.	16b-/JJ	.	16g/JJ)	.	.	.	.	16g\	-li-	.	.	.	.	.	.	.	.	.	.	.
=42	=42	=42	=42	=42	=42	=42	=42	=42	=42	=42	=42	=42	=42	=42	=42	=42	=42	=42	=42	=42	=42	=42	=42
4A-\	.	4A-/	.	4a-/	.	(16g/LL	.	1.r	.	.	16g/LL	-gen-	.	0.r	.	0.r	.	4AA-/	.	1.r	.	1.r	.
.	.	.	.	.	.	16f/)	.	.	.	.	16f/	.	.	.	.	.	.	.	.	.	.	.	.
.	.	.	.	.	.	(16a-/	.	.	.	.	16a-/	.	.	.	.	.	.	.	.	.	.	.	.
.	.	.	.	.	.	16f/JJ)	.	.	.	.	16f/JJ	.	.	.	.	.	.	.	.	.	.	.	.
4B-\	.	4G/	.	4g/	.	(16f/LL	.	.	.	.	(16f/LL	.	.	.	.	.	.	4BB-/	.	.	.	.	.
.	.	.	.	.	.	16e-/)	.	.	.	.	16e-/JJ)	.	.	.	.	.	.	.	.	.	.	.	.
.	.	.	.	.	.	(16g/	.	.	.	.	(16g/LL	-tes	.	.	.	.	.	.	.	.	.	.	.
.	.	.	.	.	.	16e-/JJ)	.	.	.	.	16e-/JJ)	.	.	.	.	.	.	.	.	.	.	.	.
4BB-/	.	4F/	.	4f/	.	(16e-/LL	.	.	.	.	(16e-/LL	no-	.	.	.	.	.	4BBB-/	.	.	.	.	.
.	.	.	.	.	.	16d/)	.	.	.	.	16d/JJ)	.	.	.	.	.	.	.	.	.	.	.	.
.	.	.	.	.	.	(16f/	.	.	.	.	(16f/LL	-ve-	.	.	.	.	.	.	.	.	.	.	.
.	.	.	.	.	.	16d/JJ)	.	.	.	.	16d/JJ)	.	.	.	.	.	.	.	.	.	.	.	.
=43	=43	=43	=43	=43	=43	=43	=43	=43	=43	=43	=43	=43	=43	=43	=43	=43	=43	=43	=43	=43	=43	=43	=43
4E-\	.	4G/	.	4e-/	.	(16e-/LL	.	.	.	.	4e-/	-rint	.	.	.	.	.	4EE-/	.	.	.	.	.
.	.	.	.	.	.	16B-/	.	.	.	.	.	.	.	.	.	.	.	.	.	.	.	.	.
.	.	.	.	.	.	16c/	.	.	.	.	.	.	.	.	.	.	.	.	.	.	.	.	.
.	.	.	.	.	.	16d/JJ)	.	.	.	.	.	.	.	.	.	.	.	.	.	.	.	.	.
!	!	!	!	!	!	!LO:LB:g=original	!	!	!	!	!	!	!	!	!	!	!	!	!	!	!	!	!
4r	.	4r	.	4r	.	(16e-/LL	.	.	.	.	4r	.	.	.	.	.	.	4r	.	.	.	.	.
.	.	.	.	.	.	16g/)	.	.	.	.	.	.	.	.	.	.	.	.	.	.	.	.	.
.	.	.	.	.	.	(16f/	.	.	.	.	.	.	.	.	.	.	.	.	.	.	.	.	.
.	.	.	.	.	.	16a-/JJ)	.	.	.	.	.	.	.	.	.	.	.	.	.	.	.	.	.
4r	.	4r	.	4r	.	16g/LL	.	.	.	.	4r	.	.	.	.	.	.	4r	.	.	.	.	.
.	.	.	.	.	.	(16b-/	.	.	.	.	.	.	.	.	.	.	.	.	.	.	.	.	.
.	.	.	.	.	.	16a-/	.	.	.	.	.	.	.	.	.	.	.	.	.	.	.	.	.
.	.	.	.	.	.	16cc/JJ)	.	.	.	.	.	.	.	.	.	.	.	.	.	.	.	.	.
=44	=44	=44	=44	=44	=44	=44	=44	=44	=44	=44	=44	=44	=44	=44	=44	=44	=44	=44	=44	=44	=44	=44	=44
!	!	!	!	!	!LO:DY:b:color=red:t=poco f:rj	!	!LO:DY:b:color=red:rj	!	!	!LO:DY:a:color=red	!LO:TX:a:t=6	!	!	!	!	!	!	!	!LO:DY:b:color=red	!	!LO:DY:b:color=red	!	!LO:DY:b:color=red
4E-\	.	4e-\	.	4g/	f	4b-\	mf	4b-\	Quid	p	0.r	.	.	.	.	.	.	4E-\	p	4gg\	p	4bb-\	p
*	*	*	*	*	*	*	*	*	*ij	*	*	*	*	*	*	*	*	*	*	*	*	*	*
4E-\	.	4e-\	.	4g/	.	4b-\	.	4b-\	Quid	.	.	.	.	.	.	.	.	4E-\	.	4gg\	.	4bb-\	.
*	*	*	*	*	*	*	*	*	*Xij	*	*	*	*	*	*	*	*	*	*	*	*	*	*
4E-\	.	4e-\	.	4g/	.	4b-\	.	4b-\	Dul-	.	.	.	.	.	.	.	.	4E-\	.	4gg\	.	4bb-\	.
=45	=45	=45	=45	=45	=45	=45	=45	=45	=45	=45	=45	=45	=45	=45	=45	=45	=45	=45	=45	=45	=45	=45	=45
!	!	!	!	!	!	!	!	!	!	!	!	!	!	!	!	!	!	!LO:LB:g=original	!	!	!	!	!
4E-\	.	4e-\	.	(8g/L	.	(8bn\L	.	8bn\L	-co-	.	.	.	.	.	.	.	.	4E-\	.	8gg\L	.	8bbn\L	.
.	.	.	.	8a-/J)	.	8cc\J)	.	8cc\J	.	.	.	.	.	.	.	.	.	.	.	8aa-\J	.	8ccc\J	.
4E-\	.	4e-\	.	4a-/	.	4cc\	.	4cc\	-ris	.	.	.	.	.	.	.	.	4E-\	.	4aa-\	.	4ccc\	.
4E-\	.	4e-\	.	8r	.	8r	.	8r	.	.	.	.	.	.	.	.	.	4E-\	.	4r	.	4r	.
!	!	!	!	!	!	!	!	!	!	!LO:DY:a:color=red	!	!	!	!	!	!	!	!	!	!	!	!	!
.	.	.	.	(16f/LL	.	16a-/LL	.	16a-\LL	Dul-	f	.	.	.	.	.	.	.	.	.	.	.	.	.
.	.	.	.	16e-/JJ)	.	16g/JJ	.	16g\JJ	.	.	.	.	.	.	.	.	.	.	.	.	.	.	.
=46	=46	=46	=46	=46	=46	=46	=46	=46	=46	=46	=46	=46	=46	=46	=46	=46	=46	=46	=46	=46	=46	=46	=46
!	!	!	!	!	!	!	!	!	!	!	!	!	!	!	!	!	!	!	!	!LO:LB:g=original	!	!LO:LB:g=original	!
4B-\	.	4b-\	.	8d/	.	8f/	.	4f/	-co-	.	.	.	.	1.r	.	1.r	.	4BB-/	.	4r	.	4r	.
.	.	.	.	4d/	.	4f/	.	.	.	.	.	.	.	.	.	.	.	.	.	.	.	.	.
4BB-/	.	4b-\	.	.	.	.	.	8f/	-ris	.	.	.	.	.	.	.	.	4BB-/	.	8r	.	8r	.
.	.	.	.	8d/	.	(8f/	.	8f/L	in	.	.	.	.	.	.	.	.	.	.	(8dd\L	.	8aa-\L	.
4BB-/	.	4b-\	.	(8e-/L	.	8g/L	.	8g/J	.	.	.	.	.	.	.	.	.	4BB-/	.	8ee-\	.	8bb-\	.
.	.	.	.	8f/J)	.	8a-/J)	.	8a-/	De-	.	.	.	.	.	.	.	.	.	.	8ff\J)	.	8ccc\J	.
=47	=47	=47	=47	=47	=47	=47	=47	=47	=47	=47	=47	=47	=47	=47	=47	=47	=47	=47	=47	=47	=47	=47	=47
4E-\	.	4b-\	.	8.g/L	.	(8.b-X\L	.	8.b-X\L	-tra-	.	.	.	.	.	.	.	.	4E-\	.	8.gg\L	.	8.bb-X\L	.
.	.	.	.	16e-/Jk	.	16g\Jk)	.	16g\Jk	.	.	.	.	.	.	.	.	.	.	.	16ee-\K	.	16gg\K	.
!	!	!	!	!	!	!	!	!LO:LB:g=original	!	!	!	!	!	!	!	!	!	!	!	!	!	!	!
4r	.	4r	.	8g/	.	8b-\	.	8b-\	-hant	.	.	.	.	.	.	.	.	4r	.	8gg\J	.	8bb-\J	.
.	.	.	.	8r	.	8r	.	8r	.	.	.	.	.	.	.	.	.	.	.	8r	.	8r	.
8r	.	8r	.	8r	.	8r	.	8r	.	.	.	.	.	.	.	.	.	8r	.	8r	.	8r	.
!	!	!	!	!LO:LB:g=original	!	!	!LO:DY:b:color=red:rj	!	!	!	!	!	!	!	!	!	!	!	!	!	!	!	!
8G\	.	8G/	.	16g/LL	.	(16b-\LL	p	16b-\	ad	.	.	.	.	.	.	.	.	8G\	.	8b-/	.	8gg\	.
.	.	.	.	16b-/JJ	.	16g\JJ)	.	16g\	a-	.	.	.	.	.	.	.	.	.	.	.	.	.	.
=48	=48	=48	=48	=48	=48	=48	=48	=48	=48	=48	=48	=48	=48	=48	=48	=48	=48	=48	=48	=48	=48	=48	=48
!	!	!LO:LB:g=original	!	!	!	!	!	!	!	!	!	!	!	!	!	!	!	!	!	!	!	!	!
4A-\	.	4A-/	.	4a-/ 4cc	.	(16g/LL	.	16g/LL	-man-	.	1.r	.	.	2.r	.	2.r	.	4A-\	.	4a-/	.	4ff\	.
.	.	.	.	.	.	16f/	.	16f/	.	.	.	.	.	.	.	.	.	.	.	.	.	.	.
.	.	.	.	.	.	16a-/	.	16a-/	.	.	.	.	.	.	.	.	.	.	.	.	.	.	.
.	.	.	.	.	.	16f/JJ)	.	16f/JJ	.	.	.	.	.	.	.	.	.	.	.	.	.	.	.
4B-\	.	4G/	.	4g/ 4b-	.	(16f/LL	.	16f/LL	.	.	.	.	.	.	.	.	.	4B-\	.	4g/	.	4ee-\	.
.	.	.	.	.	.	16e-/	.	16e-/JJ	.	.	.	.	.	.	.	.	.	.	.	.	.	.	.
.	.	.	.	.	.	16g/	.	16g/LL	-tes	.	.	.	.	.	.	.	.	.	.	.	.	.	.
.	.	.	.	.	.	16e-/JJ)	.	16e-/JJ	.	.	.	.	.	.	.	.	.	.	.	.	.	.	.
4BB-/	.	4F/	.	4f/ 4b-	.	16e-/LL	.	16e-/LL	Di-	.	.	.	.	.	.	.	.	4BB-/	.	4f/	.	4dd\	.
.	.	.	.	.	.	(16d/	.	16d/JJ	.	.	.	.	.	.	.	.	.	.	.	.	.	.	.
.	.	.	.	.	.	16f/	.	16f/LL	-xe-	.	.	.	.	.	.	.	.	.	.	.	.	.	.
.	.	.	.	.	.	16d/JJ)	.	16d/JJ	.	.	.	.	.	.	.	.	.	.	.	.	.	.	.
=49	=49	=49	=49	=49	=49	=49	=49	=49	=49	=49	=49	=49	=49	=49	=49	=49	=49	=49	=49	=49	=49	=49	=49
!LO:LB:g=original	!	!	!	!	!LO:DY:b:color=red	!	!	!	!	!	!	!	!	!	!LO:DY:b:color=red:rj:t=p&colon;	!	!LO:DY:b:color=red:t=p&colon;	!	!LO:DY:b:color=red:rj	!	!	!	!
4E-\	.	4G/	.	8e-/L	f	4e-/	.	4e-/	-rint	.	.	.	.	4e-/	p	4ee-\	p	8E-\L	p	4g/	.	4ee-\	.
.	.	.	.	32e-/LL	.	.	.	.	.	.	.	.	.	.	.	.	.	32E-\LL	.	.	.	.	.
.	.	.	.	32d/	.	.	.	.	.	.	.	.	.	.	.	.	.	32D\	.	.	.	.	.
.	.	.	.	32e-/	.	.	.	.	.	.	.	.	.	.	.	.	.	32E-\	.	.	.	.	.
.	.	.	.	32f/JJJ	.	.	.	.	.	.	.	.	.	.	.	.	.	32F\JJJ	.	.	.	.	.
*	*	*	*	*	*	*	*	*	*	*	*	*	*	*tremolo	*	*	*	*	*	*	*	*	*
!	!	!	!	!	!LO:DY:b:color=red	!	!	!	!	!	!	!	!	!LO:TX:t=....:b	!	!	!	!	!	!	!	!	!
4r	.	4r	.	8e-'/L	p	4r	.	4r	.	.	.	.	.	8e-'y/L	.	8ee-'\L	.	8E-'\L	.	4r	.	4r	.
.	.	.	.	8e-'/	.	.	.	.	.	.	.	.	.	8e-'y/	.	8ee-'\	.	8E-'\	.	.	.	.	.
4r	.	4r	.	8e-'/	.	4r	.	4r	.	.	.	.	.	8e-'y/	.	8ee-'\	.	8E-'\	.	4r	.	4r	.
.	.	.	.	8e-'/J	.	.	.	.	.	.	.	.	.	8e-'y/J	.	8ee-'\J	.	8E-'\J	.	.	.	.	.
=50	=50	=50	=50	=50	=50	=50	=50	=50	=50	=50	=50	=50	=50	=50	=50	=50	=50	=50	=50	=50	=50	=50	=50
*	*	*	*	*tremolo	*	*	*	*	*	*	*	*	*	*	*	*tremolo	*	*tremolo	*	*	*	*	*
!	!	!	!	!LO:TX:b:t=.....	!	!	!	!	!	!	!	!	!	!	!	!LO:LB:g=original	!	!	!	!	!	!	!
!	!LO:DY:b:color=red	!	!LO:DY:b:color=red	!LO:TX:t=P:problem:staccato pod tremolo	!	!LO:LB:g=original	!LO:DY:b:color=red	!	!	!	!	!	!LO:DY:a:color=red:t=f.	!	!	!LO:TX:a:t=......	!LO:DY:a:color=red:rj	!LO:TX:a:t=......	!LO:DY:b:color=red:rj	!LO:TX:a:t=3	!	!LO:TX:a:t=3	!
4r	f	4r	f	8e-'y/L	.	(2.a-/	f	4r	.	.	2.a-\	a-	f	8e-/L	.	8ee-'y\L	f	8E-'y\L	f	1.r	.	1.r	.
.	.	.	.	8e-'y/	.	.	.	.	.	.	.	.	.	8e-/	.	8ee-'y\	.	8E-'y\	.	.	.	.	.
!	!	!	!	!	!	!	!	!	!	!LO:DY:a:color=red	!	!	!	!	!	!	!	!	!	!	!	!	!
4E-\	.	4c\	.	8e-'y/	.	.	.	(4c/	a-	f	.	.	.	8e-/	.	8ee-'y\	.	8E-'y\	.	.	.	.	.
.	.	.	.	8e-'y/	.	.	.	.	.	.	.	.	.	8e-/	.	8ee-'y\	.	8E-'y\	.	.	.	.	.
4E-\	.	4d\	.	8e-'y/	.	.	.	4d/)	.	.	.	.	.	8e-/	.	8ee-'y\	.	8E-'y\	.	.	.	.	.
.	.	.	.	8e-'y/J	.	.	.	.	.	.	.	.	.	8e-/J	.	8ee-'y\J	.	8E-'y\J	.	.	.	.	.
*	*	*	*	*Xtremolo	*	*	*	*	*	*	*	*	*	*Xtremolo	*	*Xtremolo	*	*Xtremolo	*	*	*	*	*
=51	=51	=51	=51	=51	=51	=51	=51	=51	=51	=51	=51	=51	=51	=51	=51	=51	=51	=51	=51	=51	=51	=51	=51
!	!LO:DY:b:color=red	!	!LO:DY:b:color=red	!	!LO:DY:b:color=red	!	!LO:DY:b:color=red	!	!	!LO:DY:a:color=red	!	!	!LO:DY:a:color=red	!	!	!	!	!	!LO:DY:b:color=red:rj	!	!	!	!
4E-\	p	4e-\	p	8e-/L	f	4g/)	p	4e-/	-mor	p	4g\	-mor	p	8e-'/L	.	8ee-\L	.	8E-|\L	p	.	.	.	.
.	.	.	.	(32e-/LL	.	.	.	.	.	.	.	.	.	16e-'/L	.	16ee-\L	.	(32E-\LL	.	.	.	.	.
.	.	.	.	32d/	.	.	.	.	.	.	.	.	.	.	.	.	.	32D\	.	.	.	.	.
.	.	.	.	32e-/)	.	.	.	.	.	.	.	.	.	16e-'/JJ	.	16ee-\JJ	.	32E-\	.	.	.	.	.
.	.	.	.	32f/JJJ	.	.	.	.	.	.	.	.	.	.	.	.	.	32F\JJJ)	.	.	.	.	.
*	*	*	*	*	*	*	*	*	*	*	*	*	*	*tremolo	*	*tremolo	*	*tremolo	*	*	*	*	*
!	!	!	!	!	!LO:DY:b:color=red	!	!	!	!	!	!	!	!	!LO:TX:t=....:b	!	!	!	!LO:TX:a:t=....	!	!	!	!	!
4r	.	4r	.	8e-'/L	p	4r	.	4r	.	.	4r	.	.	8e-'y/L	.	8ee-\L	.	8E-'y\L	.	.	.	.	.
.	.	.	.	8e-'/	.	.	.	.	.	.	.	.	.	8e-'y/	.	8ee-\	.	8E-'y\	.	.	.	.	.
4r	.	4r	.	8e-'/	.	4r	.	4r	.	.	4r	.	.	8e-'y/	.	8ee-\	.	8E-'y\	.	.	.	.	.
.	.	.	.	8e-'/J	.	.	.	.	.	.	.	.	.	8e-'y/J	.	8ee-\J	.	8E-'y\J	.	.	.	.	.
=52	=52	=52	=52	=52	=52	=52	=52	=52	=52	=52	=52	=52	=52	=52	=52	=52	=52	=52	=52	=52	=52	=52	=52
*	*	*	*	*tremolo	*	*	*	*	*	*	*	*	*	*Xtremolo	*	*Xtremolo	*	*	*	*	*	*	*
!	!LO:DY:b:color=red	!	!LO:DY:b:color=red	!LO:TX:b:t=.....	!	!	!	!	!	!	!	!	!LO:HP:a:color=red	!	!	!	!	!	!LO:DY:b:color=red:rj	!	!	!	!
4r	f	2.a-\	p	8e-'y/L	.	4r	.	4r	.	.	2a-\	a-	<	2.e-/	.	2.ee-\	.	8E-\L	f	2.r	.	2.r	.
.	.	.	.	8e-'y/	.	.	.	.	.	.	.	.	.	.	.	.	.	8E-\	.	.	.	.	.
!	!	!	!	!	!	!	!LO:DY:b:color=red	!	!	!LO:HP:a:color=red	!	!	!	!	!	!	!	!	!	!	!	!	!
4E-\	.	.	.	8e-'y/	.	4cc\	p	4cc\	a-	<	.	.	.	.	.	.	.	8E-\	.	.	.	.	.
.	.	.	.	8e-'y/	.	.	.	.	.	.	.	.	.	.	.	.	.	8E-\	.	.	.	.	.
4E-\	.	.	.	8e-'y/	.	4dd\	.	4dd\	-mor	.	4a-\	-mor	.	.	.	.	.	8E-\	.	.	.	.	.
.	.	.	.	8e-'y/J	.	.	.	.	.	.	.	.	.	.	.	.	.	8E-\J	.	.	.	.	.
*	*	*	*	*Xtremolo	*	*	*	*	*	*	*	*	*	*	*	*	*	*Xtremolo	*	*	*	*	*
=53	=53	=53	=53	=53	=53	=53	=53	=53	=53	=53	=53	=53	=53	=53	=53	=53	=53	=53	=53	=53	=53	=53	=53
!	!LO:DY:b:color=red	!	!LO:DY:b:color=red	!	!LO:DY:b:color=red	!	!LO:DY:b:color=red	!	!	!LO:DY:a:color=red	!	!	!LO:DY:a:color=red	!	!	!	!	!	!LO:DY:b:color=red	!	!	!	!
4E-\	p	4b-\	f	8e-/L	f	8ee-\L	f	8ee-\L	tu-	f	4g/	tu-	f	4e-/	.	4ee-\	.	4E-\	p	4r	.	4r	.
.	.	.	.	8g/J	.	8b-\J	.	8b-\J	.	.	.	.	.	.	.	.	.	.	.	.	.	.	.
!	!	!	!	!	!	!	!	!	!	!	!	!	!	!	!	!	!	!	!	!	!LO:DY:b:color=red	!	!LO:DY:b:color=red:rj
4A-\	.	4cc\	.	4f/	.	4a-/	.	4a-\	.	.	4f/	.	.	4b-/	.	4ff\	.	4A-\	.	4a-/	f	4dd\	f
!LO:SIC:v:s=4B-\	!	!	!	!	!	!	!	!	!	!	!	!	!	!	!	!	!	!	!	!	!	!	!
4c\	.	4b-\	.	4e-/	.	4g/	.	4g\	.	.	4e-/	.	.	4ee-\	.	4gg\	.	4G\	.	4g/	.	4ee-\	.
=54	=54	=54	=54	=54	=54	=54	=54	=54	=54	=54	=54	=54	=54	=54	=54	=54	=54	=54	=54	=54	=54	=54	=54
!	!LO:DY:b:color=red	!	!	!	!	!	!	!	!	!	!LO:LB:g=original	!	!	!	!LO:DY:b:color=red	!	!	!	!LO:DY:b:color=red	!	!	!	!
4B-\	f	4b-\	.	4d/	.	4f/	.	4f/	-tus	.	4e-/	-tus	.	4b-/	f	4ff\	.	4F\	f	4f/	.	4dd\	.
4F\	.	4f\	.	4d/	.	4b-/	.	4r	.	.	4d/	.	.	4b-/	.	4ff\	.	4B-\	.	4b-/	.	4dd\	.
4D\	.	4f\	.	4d/	.	4b-/	.	4r	.	.	4r	.	.	4b-/	.	4ff\	.	4F\	.	4b-/	.	4dd\	.
=55	=55	=55	=55	=55	=55	=55	=55	=55	=55	=55	=55	=55	=55	=55	=55	=55	=55	=55	=55	=55	=55	=55	=55
!	!	!	!	!	!	!	!	!LO:LB:g=original	!	!	!	!	!	!	!	!	!	!	!	!	!	!	!
!	!	!	!	!	!	!	!	!LO:TX:a:t=i	!	!	!LO:TX:t=i:a	!	!	!	!	!	!	!	!	!	!	!	!
2BB-/	.	2f\	.	2d/	.	2b-/	.	2.r	.	.	2.r	.	.	2b-/	.	2ff\	.	2BB-/	.	2b-/	.	2dd\	.
4r	.	4r	.	4r	.	4r	.	.	.	.	.	.	.	4r	.	4r	.	4r	.	4r	.	4r	.
=56	=56	=56	=56	=56	=56	=56	=56	=56	=56	=56	=56	=56	=56	=56	=56	=56	=56	=56	=56	=56	=56	=56	=56
!	!LO:DY:b:color=red	!	!LO:DY:b:color=red	!	!LO:DY:b:color=red	!	!LO:DY:b:color=red	!	!	!LO:DY:a:color=red	!	!	!LO:DY:b:color=red	!	!LO:DY:b:color=red	!LO:TX:t=Basso:color=lightgrey:note=ołówkiem	!LO:DY:b:color=red	!LO:LB:g=original	!LO:DY:b:color=red	!LO:TX:a:t=4	!	!LO:TX:a:t=4	!
4BB-/	p	4d\	p	4b-\	p	4dd\	p	(4b-\	a-	p	(4dd\	a-	p	4b-/	p	4bb-\	p	2BB-/	p	0.r	.	0.r	.
!	!	!	!	!	!	!	!	!	!	!	!	!	!	!LO:TX:t=Bas:color=lightgray:note=ołówkiem	!	!	!	!	!	!	!	!	!
4r	.	4e-\	.	4cc\	.	4ee-\	.	4cc\)	-mor	.	4ee-\)	-mor	.	4r	.	4r	.	.	.	.	.	.	.
4r	.	4f\	.	4dd\	.	4ff\	.	4dd\	.	.	4ff\	.	.	4r	.	4r	.	4r	.	.	.	.	.
=57	=57	=57	=57	=57	=57	=57	=57	=57	=57	=57	=57	=57	=57	=57	=57	=57	=57	=57	=57	=57	=57	=57	=57
4r	.	2.g\	.	2.ee-\	.	2.gg\	.	2.ee-\	tu-	.	2.gg\	tu-	.	4r	.	4r	.	8r	.	.	.	.	.
.	.	.	.	.	.	.	.	.	.	.	.	.	.	.	.	.	.	8G/L	.	.	.	.	.
4E-\	.	.	.	.	.	.	.	.	.	.	.	.	.	4ee-\	.	4bb-\	.	8E-/	.	.	.	.	.
.	.	.	.	.	.	.	.	.	.	.	.	.	.	.	.	.	.	8BB-/	.	.	.	.	.
4E-\	.	.	.	.	.	.	.	.	.	.	.	.	.	4ee-\	.	4bb-\	.	8GG/	.	.	.	.	.
.	.	.	.	.	.	.	.	.	.	.	.	.	.	.	.	.	.	8EE-/J	.	.	.	.	.
=58	=58	=58	=58	=58	=58	=58	=58	=58	=58	=58	=58	=58	=58	=58	=58	=58	=58	=58	=58	=58	=58	=58	=58
!	!	!LO:SIC:v:s=2.f\	!	!	!	!	!	!	!	!	!	!	!	!	!	!	!	!	!	!	!	!	!
4r	.	2.g\	.	2.dd\	.	2.ff\	.	2.dd\	.	.	2.ff\	.	.	4r	.	4r	.	8r	.	.	.	.	.
.	.	.	.	.	.	.	.	.	.	.	.	.	.	.	.	.	.	8F/L	.	.	.	.	.
4B-\	.	.	.	.	.	.	.	.	.	.	.	.	.	4b-/	.	4bb-\	.	8D/	.	.	.	.	.
.	.	.	.	.	.	.	.	.	.	.	.	.	.	.	.	.	.	8BB-/	.	.	.	.	.
4BB-/	.	.	.	.	.	.	.	.	.	.	.	.	.	4b-/	.	4bb-\	.	8FF/	.	.	.	.	.
.	.	.	.	.	.	.	.	.	.	.	.	.	.	.	.	.	.	8BBB-/J	.	.	.	.	.
=59	=59	=59	=59	=59	=59	=59	=59	=59	=59	=59	=59	=59	=59	=59	=59	=59	=59	=59	=59	=59	=59	=59	=59
!	!	!	!	!LO:LB:g=original	!	!	!	!	!	!	!	!	!	!LO:LB:g=original	!	!	!	!	!	!	!	!	!
4r	.	2.e-\	.	2.cc\	.	2.ee-\	.	2.cc\	-tus	.	2.ee-\	-tus	.	4r	.	4r	.	8r	.	.	.	.	.
.	.	.	.	.	.	.	.	.	.	.	.	.	.	.	.	.	.	8c\L	.	.	.	.	.
4F\	.	.	.	.	.	.	.	.	.	.	.	.	.	4ff\	.	4ccc\	.	8An\	.	.	.	.	.
.	.	.	.	.	.	.	.	.	.	.	.	.	.	.	.	.	.	8F\	.	.	.	.	.
4FF/	.	.	.	.	.	.	.	.	.	.	.	.	.	4ff\	.	4ccc\	.	8c\	.	.	.	.	.
.	.	.	.	.	.	.	.	.	.	.	.	.	.	.	.	.	.	8E-\J	.	.	.	.	.
=60	=60	=60	=60	=60	=60	=60	=60	=60	=60	=60	=60	=60	=60	=60	=60	=60	=60	=60	=60	=60	=60	=60	=60
!	!	!	!	!	!	!	!	!	!	!	!	!	!	!	!	!	!	!	!	!	!LO:DY:b:color=red	!	!LO:DY:b:color=red
4BB-/	.	4d\	.	4b-\	.	4dd\	.	(4dd\	im-	.	(4b-\	im-	.	4b-/	.	4bb-\	.	4d\	.	4b-\	p	4dd\	p
4r	.	4r	.	4r	.	4r	.	4ee-\)	-pol-	.	4cc\)	.	.	4r	.	4r	.	4e-\	.	4cc\	.	4ee-\	.
4r	.	4r	.	4r	.	4r	.	4ff\	.	.	4dd|\	-pol-	.	4r	.	4r	.	4f\	.	4dd\	.	4ff\	.
=61	=61	=61	=61	=61	=61	=61	=61	=61	=61	=61	=61	=61	=61	=61	=61	=61	=61	=61	=61	=61	=61	=61	=61
!	!	!	!	!LO:LB:g=original	!	!	!	!	!	!	!	!	!	!	!	!	!	!	!LO:DY:b:color=red	!	!	!	!
4r	.	4r	.	8r	.	8r	.	2.gg\	-lu-	.	2.ee-\	-lu-	.	8r	.	8r	.	2.g\	p	2.ee-\	.	2.gg\	.
!	!	!	!	!	!LO:DY:b:color=red:rj	!	!LO:DY:b:color=red	!	!	!	!	!	!	!	!	!	!	!	!	!	!	!	!
.	.	.	.	8B-/L	pp	(8ee-\L	pp	.	.	.	.	.	.	8ee-\L	.	8bb-\L	.	.	.	.	.	.	.
!LO:LB:g=original	!	!	!LO:DY:b:color=red	!	!	!	!	!	!	!	!	!	!	!	!	!	!	!	!	!	!	!	!
4E-\	.	4e-\	p	8g/	.	8b-\	.	.	.	.	.	.	.	8ee-\	.	8bb-\	.	.	.	.	.	.	.
.	.	.	.	8e-/	.	8g\)	.	.	.	.	.	.	.	8ee-\	.	8bb-\	.	.	.	.	.	.	.
4EE-/	.	4E-/	.	8B-/	.	8e-\	.	.	.	.	.	.	.	8ee-\	.	8bb-\	.	.	.	.	.	.	.
.	.	.	.	8g/J	.	8ee-|\J	.	.	.	.	.	.	.	8ee-\J	.	8bb-\J	.	.	.	.	.	.	.
=62	=62	=62	=62	=62	=62	=62	=62	=62	=62	=62	=62	=62	=62	=62	=62	=62	=62	=62	=62	=62	=62	=62	=62
*	*	*	*	*	*	*	*	*	*	*	*	*	*	*	*	*^	*	*	*	*	*	*	*
!	!	!	!	!	!	!LO:LB:g=original	!	!	!	!	!	!	!	!	!	!LO:LB:g=original	!	!	!	!	!	!	!	!
4r	.	4r	.	8r	.	8r	.	2.ff\	.	.	2.dd'\	.	.	8r	.	8r	8ryy	.	2.f\	.	2.dd\	.	2.ff\	.
.	.	.	.	8B-/L	.	8dd\L	.	.	.	.	.	.	.	8b-/	.	8ryy	8bb-'\L	.	.	.	.	.	.	.
*	*	*	*	*	*	*	*	*	*	*	*	*	*	*tremolo	*	*tremolo	*	*	*	*	*	*	*	*
!	!	!LO:TX:t=P:problem:ołówkowe poprawki wysokości obu nut	!	!LO:SIC:v:s=8f/	!	!	!	!	!	!	!	!	!	!	!	!LO:TX:a:t=....	!	!	!	!	!	!	!	!
4B-\	.	4a-\	.	8g/	.	(8b-\	.	.	.	.	.	.	.	8b-/L	.	8bb-'y\L	8aaR\Jyy	.	.	.	.	.	.	.
!	!	!	!	!LO:SIC:v:s=8d/	!	!	!	!	!	!	!	!	!	!	!	!	!	!	!	!	!	!	!	!
.	.	.	.	8e-/	.	8f\	.	.	.	.	.	.	.	8b-/	.	8bb-'y\	8ryy	.	.	.	.	.	.	.
4BB-/	.	4A-/	.	8B-/	.	8d\)	.	.	.	.	.	.	.	8b-/	.	8bb-'y\	8ryy	.	.	.	.	.	.	.
!	!	!	!	!LO:SIC:v:s=8f/J	!	!	!	!	!	!	!	!	!	!	!	!	!	!	!	!	!	!	!	!
.	.	.	.	8g/J	.	8dd|\J	.	.	.	.	.	.	.	8b-/J	.	8bb-'y\J	8ryy	.	.	.	.	.	.	.
*	*	*	*	*	*	*	*	*	*	*	*	*	*	*	*	*Xtremolo	*	*	*	*	*	*	*	*
*	*	*	*	*	*	*	*	*	*	*	*	*	*	*Xtremolo	*	*	*	*	*	*	*	*	*	*
=63	=63	=63	=63	=63	=63	=63	=63	=63	=63	=63	=63	=63	=63	=63	=63	=63	=63	=63	=63	=63	=63	=63	=63	=63
*	*	*	*	*	*	*	*	*	*	*	*	*	*	*^	*	*	*	*	*	*	*	*	*	*
!	!	!LO:LB:g=original	!	!	!	!	!	!	!	!	!	!	!	!	!	!	!	!	!	!	!	!	!	!LO:LB:g=original	!
4r	.	4r	.	8r	.	8r	.	2.ee-\	-tus	.	2.cc\	-tus	.	8r	8ryy	.	8r	8ryy	.	2.e-\	.	2.cc\	.	2.ee-\	.
!	!	!	!	!	!	!LO:TX:t=P:problem:mixed beam	!	!	!	!	!	!	!	!	!	!	!	!	!	!	!	!	!	!	!
.	.	.	.	8e-/L	.	8cc\L	.	.	.	.	.	.	.	8ryy	8ff\L	.	8ryy	8ccc'\L	.	.	.	.	.	.	.
*	*	*	*	*	*	*	*	*	*	*	*	*	*	*tremolo	*	*	*tremolo	*	*	*	*	*	*	*	*
!	!	!	!	!	!	!	!	!	!	!	!	!	!	!	!	!	!LO:TX:a:t=....	!	!	!	!	!	!	!	!
4F\	.	4f\	.	8e-/	.	(8an\	.	.	.	.	.	.	.	8ff\L	8eeR\Jyy	.	8ccc'y\L	8bbRyy\J	.	.	.	.	.	.	.
.	.	.	.	8c/	.	8f\	.	.	.	.	.	.	.	8ff\	8ryy	.	8ccc'y\	8ryy	.	.	.	.	.	.	.
4FF/	.	4F/	.	8e-/	.	8cc\)	.	.	.	.	.	.	.	8ff\	8ryy	.	8ccc'y\	8ryy	.	.	.	.	.	.	.
.	.	.	.	8c/J	.	8e-/J	.	.	.	.	.	.	.	8ff\J	8ryy	.	8ccc'y\J	8ryy	.	.	.	.	.	.	.
*	*	*	*	*	*	*	*	*	*	*	*	*	*	*Xtremolo	*	*	*Xtremolo	*	*	*	*	*	*	*	*
*	*	*	*	*	*	*	*	*	*	*	*	*	*	*v	*v	*	*	*	*	*	*	*	*	*	*
*	*	*	*	*	*	*	*	*	*	*	*	*	*	*	*	*v	*v	*	*	*	*	*	*	*
=64	=64	=64	=64	=64	=64	=64	=64	=64	=64	=64	=64	=64	=64	=64	=64	=64	=64	=64	=64	=64	=64	=64	=64
*	*	*	*	*	*	*Xtuplet	*	*Xtuplet	*	*	*Xtuplet	*	*	*	*	*	*	*	*	*Xtuplet	*	*	*
!	!	!	!	!	!	!	!	!	!	!LO:DY:a:color=red	!	!	!LO:DY:a:color=red	!	!	!	!	!	!	!	!LO:DY:b:color=red:rj	!LO:TUP:a:problem:klamra łukowa	!LO:DY:b:color=red
4BB-/	.	4f\	.	12B-/L	.	12d/L	.	12dd\	De-	f	(12b-\	De-	f	4ff\	.	4bb-\	.	4d\	.	12b-\L	f	12dd\L	f
.	.	.	.	12A-/	.	12c/	.	12cc\L	-o	.	12an\L	-o	.	.	.	.	.	.	.	12an\	.	12cc\	.
.	.	.	.	12B-/J	.	12d/J	.	12dd\J	.	.	12b-\J)	.	.	.	.	.	.	.	.	12b-\J	.	12dd\J	.
4AAn/	.	4f\	.	4c/	.	4e-/	.	4ee-\	dum	.	4cc\	dum	.	4r	.	4r	.	4c\	.	4cc\	.	4ee-\	.
4BB-/	.	4f\	.	4B-/	.	4d/	.	4dd\	Cor-	.	4b-\	Cor	.	4r	.	4gg\	.	4B-\	.	4b-\	.	4dd\	.
=65	=65	=65	=65	=65	=65	=65	=65	=65	=65	=65	=65	=65	=65	=65	=65	=65	=65	=65	=65	=65	=65	=65	=65
!	!	!	!	!	!	!	!	!	!	!	!LO:LB:g=original	!	!	!LO:TX:t=P:problem:nieczytelne adnotacje ołówkowe	!	!	!	!	!	!	!	!	!
4F\	.	4f\	.	4B-/	.	4d/	.	8dd\	-jun-	.	8b-\	jun-	.	4ff\	.	4ff\	.	4F\	.	4b-\	.	4dd\	.
.	.	.	.	.	.	.	.	8dd\	-gi-	.	8b-\	-gi-	.	.	.	.	.	.	.	.	.	.	.
!	!	!	!	!	!	!	!	!	!	!	!LO:SIC:v:s=4an\	!	!	!	!	!	!	!	!	!LO:SIC:v:s=4an\	!	!	!
4FF/	.	4f\	.	4An/	.	4c/	.	4cc\	-tur	.	4a-\	-tur	.	4ff\	.	4ff\	.	4FF/	.	4a-\	.	4cc\	.
4r	.	4r	.	4r	.	4r	.	4r	.	.	4r	.	.	4r	.	4r	.	4r	.	4r	.	4r	.
=66	=66	=66	=66	=66	=66	=66	=66	=66	=66	=66	=66	=66	=66	=66	=66	=66	=66	=66	=66	=66	=66	=66	=66
!	!	!	!	!	!LO:DY:b:color=red	!	!LO:DY:b:color=red	!LO:TX:a:t=4	!	!	!	!	!LO:DY:a:color=red	!LO:TX:b:t=18:color=lightgray:note=ołówkiem	!	!LO:TX:a:t=i8	!	!	!	!LO:TX:a:t=4	!	!	!
!	!	!	!	!	!	!	!	!	!	!	!	!	!	!LO:TX:a:t=i8	!	!LO:TX:t=18:b:color=lightgray:note=ołówkiem	!	!	!	!	!	!LO:TX:a:t=4	!
4F\	.	4c\	.	4an/	p	4cc\	p	0.r	.	.	4cc\	quid	p	0.r	.	0.r	.	4F\	.	0.r	.	0.r	.
*	*	*	*	*	*	*	*	*	*	*	*	*ij	*	*	*	*	*	*	*	*	*	*	*
4FF/	.	8c\L	.	8a/L	.	8cc\L	.	.	.	.	8cc\L	quid	.	.	.	.	.	4An\	.	.	.	.	.
*	*	*	*	*	*	*	*	*	*	*	*	*Xij	*	*	*	*	*	*	*	*	*	*	*
.	.	8d\	.	8b-/	.	(8dd\	.	.	.	.	8dd\J	.	.	.	.	.	.	.	.	.	.	.	.
4r	.	8c\	.	8a/	.	8cc\	.	.	.	.	8cc\L	Di-	.	.	.	.	.	4G\	.	.	.	.	.
.	.	8B-\J	.	8g/J	.	8b-\J)	.	.	.	.	8b-\J	.	.	.	.	.	.	.	.	.	.	.	.
=67	=67	=67	=67	=67	=67	=67	=67	=67	=67	=67	=67	=67	=67	=67	=67	=67	=67	=67	=67	=67	=67	=67	=67
!	!	!	!	!	!	!	!	!	!	!	!	!	!	!	!	!LO:TX:t=P:problem:nieczytelne adnotacje ołówkowe	!	!	!	!	!	!	!
4F\	.	8B-/L	.	8g/L	.	(8b-/L	.	.	.	.	8b-\L	-vi-	.	.	.	.	.	4F\	.	.	.	.	.
.	.	8An/J	.	8f/J	.	8an/J)	.	.	.	.	8an\J	.	.	.	.	.	.	.	.	.	.	.	.
4FF/	.	4A/	.	4f/	.	4a/	.	.	.	.	4a\	-nus	.	.	.	.	.	4FF/	.	.	.	.	.
!	!	!	!	!	!	!	!	!	!	!	!	!	!	!	!	!	!	!LO:LB:g=original	!	!	!	!	!
4r	.	8e-\L	.	8cc\L	.	(8ee-\L	.	.	.	.	8ee-\	a-	.	.	.	.	.	4r	.	.	.	.	.
.	.	8d\J	.	8b-\J	.	8dd\J)	.	.	.	.	8dd\	-mor	.	.	.	.	.	.	.	.	.	.	.
=68	=68	=68	=68	=68	=68	=68	=68	=68	=68	=68	=68	=68	=68	=68	=68	=68	=68	=68	=68	=68	=68	=68	=68
4F\	.	8d\L	.	8b-\L	.	(8dd\L	.	.	.	.	8dd\L	poſ-	.	.	.	.	.	4F\	.	.	.	.	.
!	!	!	!	!LO:SIC:v:s=8an\J	!	!	!	!	!	!	!	!	!	!	!	!	!	!	!	!	!	!	!
.	.	8c\J	.	8a-\J	.	8cc\J)	.	.	.	.	8cc\J	.	.	.	.	.	.	.	.	.	.	.	.
!	!	!	!	!LO:SIC:v:s=4an\	!	!	!	!	!	!	!	!	!	!	!	!	!	!	!	!	!	!	!
4FF/	.	4c\	.	4a-\	.	4cc\	.	.	.	.	4cc\	-sit	.	.	.	.	.	4FF/	.	.	.	.	.
!	!	!	!	!LO:LB:g=original	!	!	!	!	!	!	!	!	!	!	!	!	!	!	!	!	!	!	!
4r	.	8g\L	.	8ee-\L	.	(8gg\L	.	.	.	.	8gg\	Di-	.	.	.	.	.	4r	.	.	.	.	.
.	.	8f\J	.	8dd\J	.	8ff\J)	.	.	.	.	8ff\	-li-	.	.	.	.	.	.	.	.	.	.	.
=69	=69	=69	=69	=69	=69	=69	=69	=69	=69	=69	=69	=69	=69	=69	=69	=69	=69	=69	=69	=69	=69	=69	=69
4BB-/	.	4f\	.	4dd\	.	4ff\	.	.	.	.	8ff\	-gen-	.	.	.	.	.	4BB-/	.	.	.	.	.
.	.	.	.	.	.	.	.	.	.	.	8ff\	-tes	.	.	.	.	.	.	.	.	.	.	.
!	!LO:DY:b:color=red	!	!	!	!	!	!	!	!	!	!	!	!	!	!	!	!	!	!LO:DY:b:color=red	!	!	!	!
8r	f	8r	.	8r	.	8r	.	.	.	.	8r	.	.	.	.	.	.	8r	f	.	.	.	.
!	!	!	!	!	!	!	!LO:DY:b:color=red	!	!	!	!	!	!LO:DY:a:color=red	!	!	!	!	!	!	!	!	!	!
8D\L	.	8f\L	.	8d/	.	8b-|\	f	.	.	.	8b-\L	no-	f	.	.	.	.	8D|\L	.	.	.	.	.
8E-\	.	8f\	.	8e-/L	.	(8cc\L	.	.	.	.	8cc\J	.	.	.	.	.	.	(8E-\	.	.	.	.	.
8F\J	.	8f\J	.	8c/J	.	8an\J)	.	.	.	.	8an\	-ve-	.	.	.	.	.	8F\J)	.	.	.	.	.
=70	=70	=70	=70	=70	=70	=70	=70	=70	=70	=70	=70	=70	=70	=70	=70	=70	=70	=70	=70	=70	=70	=70	=70
!	!	!	!	!	!	!LO:SIC:v:s=4an/	!	!LO:LB:g=original	!	!	!LO:SIC:v:s=(4an\	!	!	!	!	!	!	!	!	!	!	!	!
!	!	!	!	!	!	!LO:LB:g=original	!	!	!	!	!LO:LB:g=original	!	!	!	!	!	!	!	!	!	!	!	!
4BB-/	.	4f\	.	4c/	.	4a-/	.	4r	.	.	(4a-\	-rint	.	0.r	.	0.r	.	4B-\	.	4r	.	4r	.
4B-\	.	4f\	.	4d/	.	4b-/	.	4r	.	.	4b-\)	.	.	.	.	.	.	4BB-/	.	4r	.	4r	.
!	!	!	!	!	!	!	!LO:DY:a:color=red	!LO:SIC:v:s=8an\	!	!LO:DY:a:color=red	!	!	!	!	!	!	!	!	!LO:DY:b:color=red	!	!LO:DY:b:color=red	!	!LO:DY:b:color=red:rj
4r	.	8F/L	.	4r	.	(8An/L	p	8a-\	quid	p	4r	.	.	.	.	.	.	(8An\L	p	8f/L	p	(8an/L	p
.	.	8G/J	.	.	.	8B-/J)	.	8b-\	dul-	.	.	.	.	.	.	.	.	8B-\J)	.	8g/J	.	8b-/J)	.
=71	=71	=71	=71	=71	=71	=71	=71	=71	=71	=71	=71	=71	=71	=71	=71	=71	=71	=71	=71	=71	=71	=71	=71
*	*	*	*	*tremolo	*	*	*	*	*	*	*	*	*	*	*	*	*	*	*	*	*	*	*
!	!LO:DY:b:color=red	!LO:SIC:v:s=4An/	!	!	!LO:DY:b:color=red	!	!	!	!	!	!LO:TX:a:t=4	!	!	!	!	!	!	!	!	!	!	!	!
4F\	p	4A-/	.	8f/L	p	4c/	.	4cc\	-co-	.	0.r	.	.	.	.	.	.	4c\	.	4an/	.	4cc\	.
.	.	.	.	8f/	.	.	.	.	.	.	.	.	.	.	.	.	.	.	.	.	.	.	.
!	!	!LO:SIC:v:s=(8A/L	!	!	!	!	!	!	!	!	!	!	!	!	!	!	!	!	!	!	!	!	!
4An\	.	(8A-/L	.	8f/	.	(8c/L	.	8cc\L	-ris	.	.	.	.	.	.	.	.	8c\L	.	8a/L	.	(8cc\L	.
.	.	8B-/J)	.	8f/	.	8d/J)	.	8dd\J	.	.	.	.	.	.	.	.	.	8d\J	.	8b-/J	.	8dd\	.
!	!	!	!	!	!	!	!	!	!	!	!	!	!	!	!	!	!	!	!	!LO:TX:t=P:problem:kasownik dopisany ołówkiem	!	!	!
!	!	!LO:SIC:v:s=(8A/L	!	!	!	!	!	!	!	!	!	!	!	!	!	!	!	!	!	!LO:ACC:color=lightgrey	!	!	!
4G\	.	(8A-/L	.	8f/	.	(8c/L	.	8cc\	in	.	.	.	.	.	.	.	.	8c\L	.	8an/L	.	8cc\	.
.	.	8G/J)	.	8f/J	.	8B-/J)	.	8b-\	de-	.	.	.	.	.	.	.	.	8B-\J	.	8g/J	.	8b-\J)	.
=72	=72	=72	=72	=72	=72	=72	=72	=72	=72	=72	=72	=72	=72	=72	=72	=72	=72	=72	=72	=72	=72	=72	=72
4F\	.	(8G/L	.	8f/L	.	(8B-/L	.	8b-\L	-tra-	.	.	.	.	.	.	.	.	8B-\L	.	8g/L	.	(8b-/L	.
!	!	!	!	!	!	!LO:SIC:v:s=8An/J)	!	!	!	!	!	!	!	!	!	!	!	!LO:SIC:v:s=8An\J	!	!	!	!LO:SIC:v:s=8an/J)	!
.	.	8F/J)	.	8f/	.	8A-/J)	.	8a-\J	.	.	.	.	.	.	.	.	.	8A-\J	.	8f/J	.	8a-/J)	.
!	!	!	!	!	!	!LO:SIC:v:s=4A/	!	!LO:SIC:v:s=4an,<\	!	!	!	!	!	!	!	!	!	!LO:SIC:v:s=4An\	!	!	!	!LO:SIC:v:s=4a/	!
4FF/	.	4F/	.	8f/	.	4A-/	.	4a-,<\	-hant	.	.	.	.	.	.	.	.	4A-\	.	4f/	.	4a-/	.
.	.	.	.	8f/	.	.	.	.	.	.	.	.	.	.	.	.	.	.	.	.	.	.	.
4r	.	(8c/L	.	8f/	.	(8e-/L	.	8ee-\	ad	.	.	.	.	.	.	.	.	8e-\L	.	8cc\L	.	(8ee-\L	.
.	.	8B-/J)	.	8f/J	.	8d/J)	.	8dd\	a-	.	.	.	.	.	.	.	.	8d\J	.	8b-\J	.	8dd\J	.
=73	=73	=73	=73	=73	=73	=73	=73	=73	=73	=73	=73	=73	=73	=73	=73	=73	=73	=73	=73	=73	=73	=73	=73
!LO:LB:g=original	!	!LO:LB:g=original	!	!	!	!	!	!	!	!	!	!	!	!	!	!	!	!	!	!	!	!	!
4F\	.	(8B-/L	.	8f/L	.	(8d/L	.	8dd\L	-man-	.	.	.	.	.	.	.	.	8d\L	.	8b-\L	.	8dd\L	.
!	!	!LO:SIC:v:s=8An/J)	!	!	!	!	!	!	!	!	!	!	!	!	!	!	!	!	!	!LO:SIC:v:s=8an\J	!	!	!
.	.	8A-/J)	.	8f/	.	8c/J)	.	8cc\J	.	.	.	.	.	.	.	.	.	8c\J	.	8a-\J	.	8cc\J)	.
!	!	!	!	!	!	!	!	!	!	!	!	!	!	!	!	!	!	!	!	!LO:TX:t=P:problem:kasownik dopisany ołówkiem	!	!	!
!	!	!LO:SIC:v:s=4A/	!	!	!	!	!	!	!	!	!	!	!	!	!	!	!	!	!	!LO:ACC:color=lightgrey	!	!	!
4FF/	.	4A-/	.	8f/	.	4c/	.	4cc\	-tes	.	.	.	.	.	.	.	.	4c\	.	4an\	.	4cc\	.
.	.	.	.	8f/	.	.	.	.	.	.	.	.	.	.	.	.	.	.	.	.	.	.	.
!	!	!	!	!	!	!	!LO:DY:a:color=red:t=poco f:rj	!	!	!LO:DY:a:color=red	!	!	!	!	!	!	!	!	!	!	!	!	!
4r	.	(8e-\L	.	8f/	.	8g/L	f	8gg\	di-	f	.	.	.	.	.	.	.	8g\L	.	8ee-\L	.	(8gg\L	.
.	.	8d\J)	.	8f/J	.	8f/J	.	8ff\	-xe-	.	.	.	.	.	.	.	.	8f\J	.	8dd\J	.	8ff\J)	.
*	*	*	*	*Xtremolo	*	*	*	*	*	*	*	*	*	*	*	*	*	*	*	*	*	*	*
=74	=74	=74	=74	=74	=74	=74	=74	=74	=74	=74	=74	=74	=74	=74	=74	=74	=74	=74	=74	=74	=74	=74	=74
4E-\	.	4c/	.	8g/L	.	4e-/	.	4ee-\	-rint	.	.	.	.	0.r	.	0.r	.	4e-\	.	4cc\	.	4ee-\	.
.	.	.	.	8g/J	.	.	.	.	.	.	.	.	.	.	.	.	.	.	.	.	.	.	.
*	*	*	*	*tremolo	*	*	*	*	*	*	*	*	*	*	*	*	*	*	*	*	*	*	*
4F\	.	4B-/	.	8f/L	.	4d/	.	4dd\	a-	.	.	.	.	.	.	.	.	4d\	.	4b-\	.	4dd\	.
.	.	.	.	8f/	.	.	.	.	.	.	.	.	.	.	.	.	.	.	.	.	.	.	.
!	!	!	!	!	!	!	!	!	!	!	!	!	!	!	!	!	!	!	!	!LO:TX:t=P:problem:kasownik dopisany ołówkiem	!	!	!
!	!	!LO:SIC:v:s=4An/	!	!	!	!	!	!	!	!	!	!	!	!	!	!	!	!	!	!LO:ACC:color=lightgrey	!	!	!
4FF/	.	4A-/	.	8f/	.	4c/	.	4cc\	-mor	.	.	.	.	.	.	.	.	4c\	.	4an\	.	4cc\	.
.	.	.	.	8f/J	.	.	.	.	.	.	.	.	.	.	.	.	.	.	.	.	.	.	.
*	*	*	*	*Xtremolo	*	*	*	*	*	*	*	*	*	*	*	*	*	*	*	*	*	*	*
=75	=75	=75	=75	=75	=75	=75	=75	=75	=75	=75	=75	=75	=75	=75	=75	=75	=75	=75	=75	=75	=75	=75	=75
!	!	!	!	!	!LO:DY:b:color=red	!	!LO:DY:a:color=red	!	!	!LO:DY:a:color=red	!	!	!LO:DY:a:color=red	!	!	!	!	!	!	!	!	!	!
4B-\	.	8r	.	2.b-\	p	2.dd\	p	2.b-\	a-	p	2.dd\	a-	p	.	.	.	.	8r	.	4b-\	.	4dd\	.
.	.	8B-/L	.	.	.	.	.	.	.	.	.	.	.	.	.	.	.	8d|\L	.	.	.	.	.
4r	.	8d/	.	.	.	.	.	.	.	.	.	.	.	.	.	.	.	(8f\	.	4r	.	4r	.
.	.	8B-/	.	.	.	.	.	.	.	.	.	.	.	.	.	.	.	8d\	.	.	.	.	.
4r	.	8d/	.	.	.	.	.	.	.	.	.	.	.	.	.	.	.	8f\	.	4r	.	4r	.
.	.	8B-/J	.	.	.	.	.	.	.	.	.	.	.	.	.	.	.	8d\J)	.	.	.	.	.
=76	=76	=76	=76	=76	=76	=76	=76	=76	=76	=76	=76	=76	=76	=76	=76	=76	=76	=76	=76	=76	=76	=76	=76
!	!	!	!	!	!	!	!	!	!	!LO:HP:a:color=red	!	!	!	!	!	!	!	!	!	!LO:TX:a:t=8	!	!LO:TX:a:t=8	!
4G\	.	8r	.	2.g/	.	2.ee-\	.	2.g\	-mor	<	2.ee-\	-mor	.	.	.	.	.	8r	.	0.r	.	0.r	.
.	.	8G/L	.	.	.	.	.	.	.	.	.	.	.	.	.	.	.	(8e-\L	.	.	.	.	.
4r	.	8B-/	.	.	.	.	.	.	.	.	.	.	.	.	.	.	.	8g\	.	.	.	.	.
.	.	8G/	.	.	.	.	.	.	.	.	.	.	.	.	.	.	.	8e-\J)	.	.	.	.	.
!	!	!	!	!	!	!	!	!	!	!	!	!	!	!	!	!	!	!LO:LB:g=original	!	!	!	!	!
4r	.	8B-/	.	.	.	.	.	.	.	.	.	.	.	.	.	.	.	8g\L	.	.	.	.	.
.	.	8G/J	.	.	.	.	.	.	.	.	.	.	.	.	.	.	.	8e-\J	.	.	.	.	.
=77	=77	=77	=77	=77	=77	=77	=77	=77	=77	=77	=77	=77	=77	=77	=77	=77	=77	=77	=77	=77	=77	=77	=77
!	!	!	!	!	!	!	!	!LO:LB:g=original	!	!	!	!	!LO:HP:b:color=red	!	!	!	!	!	!	!	!	!	!
4D\	.	8r	.	2.d/	.	(2ff\	.	2d/	tu-	.	2ff\	tu-	<	.	.	.	.	8r	.	.	.	.	.
.	.	8D/L	.	.	.	.	.	.	.	.	.	.	.	.	.	.	.	8f\L	.	.	.	.	.
4r	.	8F/	.	.	.	.	.	.	.	.	.	.	.	.	.	.	.	8e-\	.	.	.	.	.
.	.	8D/	.	.	.	.	.	.	.	.	.	.	.	.	.	.	.	8d\	.	.	.	.	.
4r	.	8F/	.	.	.	4ff#X\)	.	4d/	-tus	.	4ff#X\	-tus	.	.	.	.	.	8c\	.	.	.	.	.
.	.	8D/J	.	.	.	.	.	.	.	.	.	.	.	.	.	.	.	8B-\J	.	.	.	.	.
=78	=78	=78	=78	=78	=78	=78	=78	=78	=78	=78	=78	=78	=78	=78	=78	=78	=78	=78	=78	=78	=78	=78	=78
*	*	*Xtuplet	*	*	*	*	*	*	*	*	*tuplet	*	*	*	*	*	*	*	*	*	*	*	*
!	!	!	!	!LO:TUP:a:problem:klamra łukowa, kropka zamiast numeru	!LO:DY:b:color=red	!LO:TUP:a:problem:klamra łukowa, kropka zamiast numeru	!LO:DY:a:color=red	!	!	!LO:DY:a:color=red	!LO:TUP:a:problem:klamra łukowa	!	!LO:DY:b:color=red	!	!	!	!	!	!	!	!	!	!
(4E-\	.	12e-\L	.	12ee-\L	f	12gg\L	f	8e-/L	im-	f	12gg\L,<	im-	f	0.r	.	0.r	.	4e-\	.	.	.	.	.
.	.	12f\	.	12dd\	.	12ff\	.	.	.	.	12ff\	-pol-	.	.	.	.	.	.	.	.	.	.	.
.	.	.	.	.	.	.	.	8e-/J	-pol-	.	.	.	.	.	.	.	.	.	.	.	.	.	.
.	.	12g\J	.	12cc\J	.	12ee-\J	.	.	.	.	12ee-\J	.	.	.	.	.	.	.	.	.	.	.	.
4F\)	.	4f\	.	4b-\	.	4dd\	.	4f/	-lu-	.	4dd\	-lus-	.	.	.	.	.	4f\	.	.	.	.	.
4FF/	.	4f\	.	4an\	.	4cc\	.	4e-/	-tus	.	4cc\	-tus,	.	.	.	.	.	4F\	.	.	.	.	.
=79	=79	=79	=79	=79	=79	=79	=79	=79	=79	=79	=79	=79	=79	=79	=79	=79	=79	=79	=79	=79	=79	=79	=79
!	!	!	!	!	!LO:DY:b:color=red	!LO:TX:t=P:problem:dalszy ciąg na kolejnym skanie 	!	!	!	!LO:DY:a:color=red	!	!	!LO:DY:a:color=red	!	!	!	!	!	!	!	!	!	!
4B-\	.	2.b-\	.	2.dd\	p	8r	.	2.dd\	De-	p	2.b-\	De-	p	.	.	.	.	8r	.	.	.	.	.
!	!	!	!	!	!	!LO:PB:g=original	!LO:DY:a:color=red	!	!	!	!	!	!	!	!	!	!	!	!	!	!	!	!
.	.	.	.	.	.	8B-/L	p	.	.	.	.	.	.	.	.	.	.	8D\L	.	.	.	.	.
4r	.	.	.	.	.	(8d/	.	.	.	.	.	.	.	.	.	.	.	8F\	.	.	.	.	.
.	.	.	.	.	.	8B-/	.	.	.	.	.	.	.	.	.	.	.	8D\	.	.	.	.	.
4r	.	.	.	.	.	8d/)	.	.	.	.	.	.	.	.	.	.	.	8F\	.	.	.	.	.
.	.	.	.	.	.	8B-/J	.	.	.	.	.	.	.	.	.	.	.	8D\J	.	.	.	.	.
=80	=80	=80	=80	=80	=80	=80	=80	=80	=80	=80	=80	=80	=80	=80	=80	=80	=80	=80	=80	=80	=80	=80	=80
!	!	!	!	!	!	!	!	!	!	!LO:HP:b:color=red:t=crs	!	!	!	!	!	!	!	!	!	!	!	!	!
4G\	.	2.g\	.	2.ee-\	.	8r	.	2.ee-\	-o	<	2.g\	-o	.	.	.	.	.	8r	.	0.r	.	0.r	.
.	.	.	.	.	.	8B-/L	.	.	.	.	.	.	.	.	.	.	.	8E-\L	.	.	.	.	.
4r	.	.	.	.	.	(8e-/	.	.	.	.	.	.	.	.	.	.	.	8G\	.	.	.	.	.
.	.	.	.	.	.	8B-/	.	.	.	.	.	.	.	.	.	.	.	8E-\	.	.	.	.	.
4r	.	.	.	.	.	8e-/	.	.	.	.	.	.	.	.	.	.	.	8G\	.	.	.	.	.
.	.	.	.	.	.	8B-/J)	.	.	.	.	.	.	.	.	.	.	.	8E-\J	.	.	.	.	.
=81	=81	=81	=81	=81	=81	=81	=81	=81	=81	=81	=81	=81	=81	=81	=81	=81	=81	=81	=81	=81	=81	=81	=81
!	!	!	!	!LO:LB:g=original	!	!	!	!	!	!	!	!	!	!	!	!	!	!	!	!	!	!	!
4D\	.	2.d\	.	(2ff\	.	8r	.	2ff\	Dum	.	2d/	Dum	.	.	.	.	.	8r	.	.	.	.	.
.	.	.	.	.	.	8d/L	.	.	.	.	.	.	.	.	.	.	.	8F\L	.	.	.	.	.
4r	.	.	.	.	.	(8f/	.	.	.	.	.	.	.	.	.	.	.	8E-\	.	.	.	.	.
.	.	.	.	.	.	8d/	.	.	.	.	.	.	.	.	.	.	.	8D\	.	.	.	.	.
4r	.	.	.	4ff#X\)	.	8f/	.	4ff#X\	Cor	.	4d/	Cor	.	.	.	.	.	8C\	.	.	.	.	.
.	.	.	.	.	.	8d/J)	.	.	.	.	.	.	.	.	.	.	.	8BB-\J	.	.	.	.	.
=82	=82	=82	=82	=82	=82	=82	=82	=82	=82	=82	=82	=82	=82	=82	=82	=82	=82	=82	=82	=82	=82	=82	=82
!	!LO:DY:b:color=red	!	!	!	!LO:DY:b:color=red	!LO:TX:t=P:problem:mixed beam	!	!	!	!LO:DY:b:t=fort:color=red	!	!	!LO:DY:a:color=red	!	!	!	!	!	!LO:DY:a:color=red	!	!	!	!
4E-\	f	8c\L	.	24gg\LL	f	(8e-/L	.	24gg\LL	jun-	f	(4e-/	jun-	f	1.r	.	1.r	.	8E-\L	f	.	.	.	.
.	.	.	.	24aa-\	.	.	.	24aa-\	.	.	.	.	.	.	.	.	.	.	.	.	.	.	.
.	.	.	.	24bb-\JJ	.	.	.	24bb-\JJ	.	.	.	.	.	.	.	.	.	.	.	.	.	.	.
.	.	8e-\J	.	32aa-\LLL	.	8cc\J)	.	32aa-\LLL	.	.	.	.	.	.	.	.	.	8C\J	.	.	.	.	.
.	.	.	.	32gg\	.	.	.	32gg\	.	.	.	.	.	.	.	.	.	.	.	.	.	.	.
.	.	.	.	32ff\	.	.	.	32ff\	.	.	.	.	.	.	.	.	.	.	.	.	.	.	.
.	.	.	.	32ee-\JJJ	.	.	.	32ee-\JJJ	.	.	.	.	.	.	.	.	.	.	.	.	.	.	.
4F\	.	4f\	.	4dd\	.	4b-\	.	4dd\	.	.	4f/)	.	.	.	.	.	.	4F\	.	.	.	.	.
!	!	!	!	!	!	!LO:SIC:v:s=4an\	!	!	!	!	!	!	!	!	!	!	!	!	!	!	!	!	!
4FF/	.	4f\	.	4cc\	.	4a-\	.	4cc\	-gi-	.	4e-/	-gi-	.	.	.	.	.	4FF/	.	.	.	.	.
=83	=83	=83	=83	=83	=83	=83	=83	=83	=83	=83	=83	=83	=83	=83	=83	=83	=83	=83	=83	=83	=83	=83	=83
!	!	!LO:LB:g=original	!	!	!	!	!	!	!	!	!	!	!	!	!	!	!	!	!	!	!	!	!
4BB-/	.	4b-\	.	4b-/	.	4b-\	.	4b-\	-tur	.	4d/	-tur	.	.	.	.	.	4BB-/	.	.	.	.	.
!	!	!	!LO:DY:b:color=red	!	!LO:DY:b:color=red	!	!LO:DY:b:color=red	!	!	!	!	!	!	!	!	!	!	!	!	!	!	!	!
4r	.	4b-\	pp	4a-X/	pp	4dd\	pp	4r	.	.	4r	.	.	.	.	.	.	4r	.	.	.	.	.
4r	.	4b-\	.	4g/	.	4ee-\	.	4r	.	.	4r	.	.	.	.	.	.	4r	.	.	.	.	.
=84	=84	=84	=84	=84	=84	=84	=84	=84	=84	=84	=84	=84	=84	=84	=84	=84	=84	=84	=84	=84	=84	=84	=84
!	!LO:DY:b:color=red	!	!	!	!	!	!	!LO:TX:a:t=2	!	!	!LO:TX:a:t=2	!	!	!	!	!	!LO:DY:a:color=red:t=f&colon;	!	!LO:DY:b:color=red	!	!	!LO:LB:g=original	!
4BB-/	pp	4b-\	.	4a-/	.	4ff\	.	1.r	.	.	1.r	.	.	4r	.	4r	f	4BB-/	pp	4r	.	4r	.
!	!	!	!	!	!	!	!	!	!	!	!	!	!	!	!LO:DY:b:color=red	!	!	!	!	!	!LO:DY:b:color=red	!	!LO:DY:b:color=red
4D\	.	4b-\	.	4f/	.	4a-/	.	.	.	.	.	.	.	4ff\	f	4aa-\	.	4D/	.	4aa-\	pp	4aa-\	pp
4E-\	.	4b-\	.	4e-/	.	4g/	.	.	.	.	.	.	.	4ee-\	.	4gg\	.	4E-\	.	4gg\	.	4gg\	.
=85	=85	=85	=85	=85	=85	=85	=85	=85	=85	=85	=85	=85	=85	=85	=85	=85	=85	=85	=85	=85	=85	=85	=85
!	!	!	!	!	!	!	!	!	!	!	!	!	!	!	!	!	!	!	!	!LO:LB:g=original	!	!	!
4B-\	.	4b-\	.	4e-/	.	4g/	.	.	.	.	.	.	.	4ee-\	.	4gg\	.	4B-\	.	4ee-\	.	4gg\	.
4BB-/	.	4b-\	.	4d/	.	4f/	.	.	.	.	.	.	.	4b-/	.	4ff\	.	4BB-/	.	4dd\	.	4ff\	.
4r	.	4r	.	4r	.	4r	.	.	.	.	.	.	.	4r	.	4r	.	4r	.	4r	.	4r	.
==	==	==	==	==	==	==	==	==	==	==	==	==	==	==	==	==	==	==	==	==	==	==	==
*-	*-	*-	*-	*-	*-	*-	*-	*-	*-	*-	*-	*-	*-	*-	*-	*-	*-	*-	*-	*-	*-	*-	*-
!!!system-decoration: [(g1)][(g2)][(g3)][(g4)]
!!!RDF**kern: > = above
!!!RDF**kern: < = below
!!!RDF**dynam: < = cres
!!!RDF**kern: | = vertical stroke
!!!ENC: Mateusz Solarz
!!!END: 2020-11-09
!!!ENC: Krzysztof Stępień
!!!END: 2022-04-21
!!!YEC: Copyright 2022 Narodowy Instytut Fryderyka Chopina (https://polishscores.org)
!!!YEM: License CC-BY-4.0 (https://creativecommons.org/licenses/by/4.0)
